;FLAVOR:Marlin
;TIME:1696
;Filament used: 0.756823m
;Layer height: 0.15
;MINX:86.979
;MINY:105.4
;MINZ:0.2
;MAXX:148.045
;MAXY:129.604
;MAXZ:6.95
;Generated with Cura_SteamEngine 4.1.0
M140 S60
M105
M190 S60
M104 S200
M105
M109 S200
M82 ;absolute extrusion mode
; Ender 3 Custom Start G-code
G28 ; Home all axes
G92 E0 ; Reset Extruder
G1 Z2.0 F3000 ; Move Z Axis up little to prevent scratching of Heat Bed
G1 X0.1 Y20 Z0.3 F5000.0 ; Move to start position
G1 X0.1 Y200.0 Z0.3 F1500.0 E15 ; Draw the first line
G1 X0.4 Y200.0 Z0.3 F5000.0 ; Move to side a little
G1 X0.4 Y20 Z0.3 F1500.0 E30 ; Draw the second line
G92 E0 ; Reset Extruder
G1 Z2.0 F3000 ; Move Z Axis up little to prevent scratching of Heat Bed
; End of custom start GCode
G92 E0
G92 E0
G1 F2400 E-5
;LAYER_COUNT:46
;LAYER:0
M107
M204 S500
M205 X10 Y10
G0 F3600 X90.703 Y110.258 Z0.2
;TYPE:SKIRT
G1 F2400 E0
G1 F1800 X91.007 Y110.036 E0.01252
G1 X91.287 Y109.843 E0.02383
G1 X91.432 Y109.746 E0.02963
G1 X91.709 Y109.566 E0.04062
G1 X92.186 Y109.284 E0.05905
G1 X93.278 Y108.702 E0.10021
G1 X93.359 Y108.66 E0.10324
G1 X93.595 Y108.539 E0.11206
G1 X96.607 Y106.864 E0.22669
G1 X97.331 Y106.444 E0.25453
G1 X97.969 Y106.121 E0.27831
G1 X98.639 Y105.87 E0.30211
G1 X99.333 Y105.697 E0.3259
G1 X100.042 Y105.601 E0.3497
G1 X100.437 Y105.583 E0.36285
G1 X101.189 Y105.571 E0.38786
G1 X101.291 Y105.57 E0.39126
G1 X112.536 Y105.57 E0.76527
G1 X115.179 Y105.533 E0.85318
G1 X117.703 Y105.429 E0.9372
G1 X118.163 Y105.404 E0.95252
G1 X118.801 Y105.4 E0.97374
G1 X121.615 Y105.527 E1.06743
G1 X123.52 Y105.557 E1.1308
G1 X126.085 Y105.597 E1.21612
G1 X128.999 Y105.595 E1.31304
G1 X130.518 Y105.571 E1.36357
G1 X130.619 Y105.57 E1.36693
G1 X133.564 Y105.57 E1.46488
G1 X133.655 Y105.571 E1.46791
G1 X135.269 Y105.594 E1.5216
G1 X138.537 Y105.585 E1.63029
G1 X139.266 Y105.571 E1.65454
G1 X139.39 Y105.57 E1.65867
G1 X140.938 Y105.57 E1.71015
G1 X141.03 Y105.571 E1.71321
G1 X141.728 Y105.581 E1.73643
G1 X142.441 Y105.631 E1.7602
G1 X143.145 Y105.76 E1.78401
G1 X143.829 Y105.968 E1.80779
G1 X144.486 Y106.25 E1.83157
G1 X145.108 Y106.604 E1.85537
G1 X145.686 Y107.025 E1.87915
G1 X146.214 Y107.508 E1.90296
G1 X146.684 Y108.046 E1.92672
G1 X147.092 Y108.634 E1.95052
G1 X147.431 Y109.264 E1.97431
G1 X147.698 Y109.927 E1.99809
G1 X147.889 Y110.617 E2.0219
G1 X148.002 Y111.323 E2.04568
G1 X148.033 Y111.8 E2.06158
G1 X148.042 Y112.12 E2.07223
G1 X148.045 Y112.3 E2.07821
G1 X148.045 Y122.373 E2.41324
G1 X148.036 Y123.1 E2.43743
G1 X147.987 Y123.814 E2.46123
G1 X147.859 Y124.518 E2.48503
G1 X147.653 Y125.203 E2.50882
G1 X147.372 Y125.86 E2.53259
G1 X147.019 Y126.483 E2.5564
G1 X146.599 Y127.062 E2.58019
G1 X146.117 Y127.59 E2.60397
G1 X145.58 Y128.062 E2.62775
G1 X144.992 Y128.47 E2.65155
G1 X144.363 Y128.811 E2.67535
G1 X143.7 Y129.079 E2.69914
G1 X143.011 Y129.271 E2.72293
G1 X142.305 Y129.386 E2.74672
G1 X141.815 Y129.418 E2.76305
G1 X141.494 Y129.427 E2.77373
G1 X141.315 Y129.43 E2.77968
G1 X139.121 Y129.43 E2.85266
G1 X139.031 Y129.429 E2.85565
G1 X137.404 Y129.406 E2.90977
G1 X134.149 Y129.415 E3.01803
G1 X133.42 Y129.429 E3.04228
G1 X133.288 Y129.43 E3.04667
G1 X129.123 Y129.425 E3.1852
G1 X128.708 Y129.43 E3.19901
G1 X128.638 Y129.43 E3.20133
G1 X123.644 Y129.435 E3.36744
G1 X120.178 Y129.55 E3.48278
G1 X119.731 Y129.573 E3.49767
G1 X119.638 Y129.577 E3.50076
G1 X118.92 Y129.604 E3.52466
G1 X118.382 Y129.602 E3.54255
G1 X116.582 Y129.518 E3.60249
G1 X113.915 Y129.441 E3.69123
G1 X112.489 Y129.43 E3.73866
G1 X105.56 Y129.43 E3.96912
G1 X105.471 Y129.429 E3.97208
G1 X103.823 Y129.406 E4.0269
G1 X101.093 Y129.406 E4.1177
G1 X100.815 Y129.413 E4.12695
G1 X100.728 Y129.415 E4.12984
G1 X99.438 Y129.43 E4.17275
G1 X97.068 Y129.43 E4.25158
G1 X96.976 Y129.429 E4.25464
G1 X96.278 Y129.419 E4.27785
G1 X95.565 Y129.369 E4.30163
G1 X94.861 Y129.24 E4.32543
G1 X94.177 Y129.032 E4.34921
G1 X93.52 Y128.75 E4.37299
G1 X92.898 Y128.396 E4.39679
G1 X92.32 Y127.975 E4.42058
G1 X91.792 Y127.492 E4.44438
G1 X91.318 Y126.949 E4.46835
G1 X91.198 Y126.795 E4.47484
G1 X89.46 Y124.6 E4.56796
G1 X89.42 Y124.548 E4.57015
G1 X89.096 Y124.13 E4.58774
G1 X88.877 Y123.83 E4.60009
G1 X88.689 Y123.556 E4.61114
G1 X88.591 Y123.409 E4.61702
G1 X88.41 Y123.129 E4.62811
G1 X87.945 Y122.274 E4.66048
G1 X87.845 Y122.051 E4.66861
G1 X87.745 Y121.814 E4.67716
G1 X87.575 Y121.39 E4.69236
G1 X87.346 Y120.712 E4.71616
G1 X87.26 Y120.363 E4.72811
G1 X87.192 Y120.049 E4.7388
G1 X87.151 Y119.844 E4.74575
G1 X87.088 Y119.499 E4.75742
G1 X86.985 Y118.468 E4.79188
G1 X86.979 Y118.146 E4.80259
G1 X86.979 Y117.938 E4.80951
G1 X86.984 Y117.577 E4.82152
G1 X87.076 Y116.576 E4.85495
G1 X87.128 Y116.275 E4.86511
G1 X87.18 Y116.009 E4.87413
G1 X87.26 Y115.64 E4.88668
G1 X87.544 Y114.693 E4.91957
G1 X87.657 Y114.4 E4.93001
G1 X87.745 Y114.182 E4.93783
G1 X87.892 Y113.839 E4.95024
G1 X88.378 Y112.92 E4.98482
G1 X88.545 Y112.658 E4.99515
G1 X88.67 Y112.47 E5.00266
G1 X88.884 Y112.159 E5.01522
G1 X89.321 Y111.593 E5.039
G1 X89.578 Y111.315 E5.05159
G1 X89.79 Y111.098 E5.06168
G1 X89.893 Y110.994 E5.06655
G1 X90.164 Y110.729 E5.07916
G1 X90.703 Y110.258 E5.10297
G0 F3600 X91.234 Y110.365
G1 F1800 X91.514 Y110.172 E5.11428
G1 X91.65 Y110.081 E5.11972
G1 X91.927 Y109.901 E5.13071
G1 X92.374 Y109.637 E5.14797
G1 X93.466 Y109.055 E5.18913
G1 X93.542 Y109.015 E5.19199
G1 X93.794 Y108.885 E5.20142
G1 X96.822 Y107.201 E5.31666
G1 X97.532 Y106.79 E5.34394
G1 X98.15 Y106.478 E5.36697
G1 X98.8 Y106.239 E5.39
G1 X99.473 Y106.077 E5.41303
G1 X100.443 Y105.983 E5.44544
G1 X101.195 Y105.971 E5.47045
G1 X101.291 Y105.97 E5.47365
G1 X112.542 Y105.97 E5.84786
G1 X115.202 Y105.932 E5.93634
G1 X117.68 Y105.831 E6.01883
G1 X118.184 Y105.803 E6.03561
G1 X118.783 Y105.8 E6.05554
G1 X121.591 Y105.927 E6.14903
G1 X126.078 Y105.997 E6.29828
G1 X129.005 Y105.995 E6.39564
G1 X130.524 Y105.971 E6.44616
G1 X130.619 Y105.97 E6.44932
G1 X133.564 Y105.97 E6.54728
G1 X133.649 Y105.971 E6.5501
G1 X135.264 Y105.994 E6.60382
G1 X138.545 Y105.985 E6.71295
G1 X139.273 Y105.971 E6.73717
G1 X139.39 Y105.97 E6.74106
G1 X140.938 Y105.97 E6.79255
G1 X141.024 Y105.971 E6.79541
G1 X141.722 Y105.981 E6.81862
G1 X142.413 Y106.03 E6.84167
G1 X143.093 Y106.16 E6.86469
G1 X143.754 Y106.366 E6.88772
G1 X144.387 Y106.648 E6.91077
G1 X144.983 Y107 E6.93379
G1 X145.534 Y107.419 E6.95681
G1 X146.034 Y107.899 E6.97987
G1 X146.475 Y108.433 E7.0029
G1 X146.852 Y109.014 E7.02594
G1 X147.159 Y109.635 E7.04898
G1 X147.392 Y110.287 E7.07201
G1 X147.549 Y110.961 E7.09502
G1 X147.634 Y111.811 E7.12344
G1 X147.643 Y112.131 E7.13408
G1 X147.645 Y112.3 E7.1397
G1 X147.645 Y122.368 E7.47457
G1 X147.636 Y123.095 E7.49875
G1 X147.587 Y123.786 E7.52179
G1 X147.459 Y124.467 E7.54484
G1 X147.254 Y125.128 E7.56785
G1 X146.974 Y125.761 E7.59088
G1 X146.622 Y126.358 E7.61393
G1 X146.205 Y126.911 E7.63696
G1 X145.726 Y127.411 E7.65999
G1 X145.193 Y127.853 E7.68302
G1 X144.612 Y128.231 E7.70608
G1 X143.992 Y128.539 E7.7291
G1 X143.341 Y128.774 E7.75212
G1 X142.666 Y128.932 E7.77518
G1 X141.804 Y129.019 E7.804
G1 X141.483 Y129.028 E7.81468
G1 X141.315 Y129.03 E7.82026
G1 X139.121 Y129.03 E7.89324
G1 X139.037 Y129.029 E7.89603
G1 X137.409 Y129.006 E7.95018
G1 X134.141 Y129.015 E8.05888
G1 X133.413 Y129.029 E8.0831
G1 X133.289 Y129.03 E8.08722
G1 X129.119 Y129.025 E8.22592
G1 X128.703 Y129.03 E8.23975
G1 X128.638 Y129.03 E8.24191
G1 X123.662 Y129.035 E8.40742
G1 X120.143 Y129.151 E8.52452
G1 X119.71 Y129.174 E8.53895
G1 X119.623 Y129.178 E8.54184
G1 X118.905 Y129.205 E8.56574
G1 X118.4 Y129.202 E8.58254
G1 X116.609 Y129.118 E8.64217
G1 X113.931 Y129.041 E8.73128
G1 X112.492 Y129.03 E8.77914
G1 X105.56 Y129.03 E9.0097
G1 X105.476 Y129.029 E9.01249
G1 X103.828 Y129.006 E9.06731
G1 X101.083 Y129.006 E9.15861
G1 X100.805 Y129.013 E9.16786
G1 X100.724 Y129.015 E9.17056
G1 X99.434 Y129.03 E9.21346
G1 X97.068 Y129.03 E9.29216
G1 X96.982 Y129.029 E9.29502
G1 X96.284 Y129.019 E9.31824
G1 X95.593 Y128.97 E9.34128
G1 X94.913 Y128.84 E9.3643
G1 X94.252 Y128.634 E9.38733
G1 X93.619 Y128.352 E9.41038
G1 X93.023 Y128 E9.4334
G1 X92.472 Y127.581 E9.45642
G1 X91.972 Y127.101 E9.47948
G1 X91.634 Y126.704 E9.49682
G1 X91.48 Y126.506 E9.50516
G1 X89.774 Y124.352 E9.59655
G1 X89.736 Y124.303 E9.59862
G1 X89.412 Y123.885 E9.61621
G1 X89.207 Y123.604 E9.62777
G1 X89.019 Y123.33 E9.63883
G1 X88.927 Y123.192 E9.64434
G1 X88.746 Y122.912 E9.65543
G1 X88.31 Y122.11 E9.68579
G1 X88.21 Y121.887 E9.69392
G1 X88.116 Y121.665 E9.70194
G1 X87.946 Y121.241 E9.71713
G1 X87.651 Y120.278 E9.75063
G1 X87.583 Y119.964 E9.76132
G1 X87.545 Y119.772 E9.76783
G1 X87.482 Y119.427 E9.77949
G1 X87.385 Y118.461 E9.81178
G1 X87.379 Y118.139 E9.8225
G1 X87.379 Y117.944 E9.82898
G1 X87.384 Y117.583 E9.84099
G1 X87.471 Y116.645 E9.87232
G1 X87.523 Y116.344 E9.88248
G1 X87.571 Y116.094 E9.89095
G1 X87.651 Y115.725 E9.90351
G1 X87.917 Y114.837 E9.93434
G1 X88.03 Y114.544 E9.94478
G1 X88.113 Y114.339 E9.95214
G1 X88.26 Y113.996 E9.96455
G1 X88.715 Y113.135 E9.99694
G1 X88.882 Y112.873 E10.00727
G1 X88.999 Y112.697 E10.0143
G1 X89.213 Y112.386 E10.02686
G1 X89.864 Y111.594 E10.06096
G1 X90.076 Y111.377 E10.07105
G1 X90.173 Y111.28 E10.07561
G1 X90.444 Y111.015 E10.08822
G1 X91.234 Y110.365 E10.12224
G0 F3600 X91.461 Y110.694
G1 F1800 X91.741 Y110.501 E10.13355
G1 X91.868 Y110.416 E10.13864
G1 X92.145 Y110.236 E10.14962
G1 X92.562 Y109.99 E10.16573
G1 X93.654 Y109.408 E10.20688
G1 X93.725 Y109.371 E10.20955
G1 X93.98 Y109.24 E10.21908
G1 X96.994 Y107.564 E10.33378
G1 X97.732 Y107.136 E10.36216
G1 X98.33 Y106.836 E10.38441
G1 X98.96 Y106.609 E10.40668
G1 X99.612 Y106.459 E10.42894
G1 X100.45 Y106.383 E10.45692
G1 X101.202 Y106.371 E10.48194
G1 X101.291 Y106.37 E10.4849
G1 X112.548 Y106.37 E10.85931
G1 X115.223 Y106.332 E10.94829
G1 X117.659 Y106.232 E11.02938
G1 X118.206 Y106.202 E11.0476
G1 X118.765 Y106.2 E11.06619
G1 X121.566 Y106.326 E11.15945
G1 X123.508 Y106.357 E11.22405
G1 X126.073 Y106.397 E11.30937
G1 X129.011 Y106.395 E11.40709
G1 X130.53 Y106.371 E11.45761
G1 X130.619 Y106.37 E11.46058
G1 X133.564 Y106.37 E11.55853
G1 X133.644 Y106.371 E11.56119
G1 X135.26 Y106.394 E11.61494
G1 X138.554 Y106.385 E11.7245
G1 X139.281 Y106.371 E11.74868
G1 X139.39 Y106.37 E11.75231
G1 X140.938 Y106.37 E11.8038
G1 X141.018 Y106.371 E11.80646
G1 X141.716 Y106.381 E11.82968
G1 X142.383 Y106.43 E11.85192
G1 X143.04 Y106.559 E11.87419
G1 X143.676 Y106.765 E11.89642
G1 X144.284 Y107.046 E11.9187
G1 X144.853 Y107.396 E11.94092
G1 X145.377 Y107.813 E11.96319
G1 X145.847 Y108.289 E11.98544
G1 X146.257 Y108.817 E12.00768
G1 X146.602 Y109.391 E12.02995
G1 X146.875 Y110.002 E12.05221
G1 X147.073 Y110.641 E12.07446
G1 X147.194 Y111.299 E12.09671
G1 X147.234 Y111.823 E12.11419
G1 X147.243 Y112.143 E12.12484
G1 X147.245 Y112.3 E12.13006
G1 X147.245 Y122.363 E12.46476
G1 X147.236 Y123.09 E12.48894
G1 X147.187 Y123.758 E12.51122
G1 X147.06 Y124.414 E12.53344
G1 X146.855 Y125.051 E12.5557
G1 X146.576 Y125.659 E12.57795
G1 X146.226 Y126.229 E12.60019
G1 X145.81 Y126.754 E12.62247
G1 X145.335 Y127.225 E12.64472
G1 X144.808 Y127.636 E12.66695
G1 X144.235 Y127.982 E12.68921
G1 X143.625 Y128.256 E12.71146
G1 X142.986 Y128.456 E12.73373
G1 X142.328 Y128.578 E12.75598
G1 X141.793 Y128.619 E12.77383
G1 X141.472 Y128.628 E12.78451
G1 X141.315 Y128.63 E12.78973
G1 X139.121 Y128.63 E12.86271
G1 X139.042 Y128.629 E12.86533
G1 X137.413 Y128.606 E12.91952
G1 X134.132 Y128.615 E13.02865
G1 X133.405 Y128.629 E13.05283
G1 X133.289 Y128.63 E13.05669
G1 X129.114 Y128.625 E13.19555
G1 X128.698 Y128.63 E13.20939
G1 X128.638 Y128.63 E13.21138
G1 X123.647 Y128.635 E13.37738
G1 X120.11 Y128.752 E13.49509
G1 X119.689 Y128.774 E13.50911
G1 X119.608 Y128.778 E13.51181
G1 X118.89 Y128.805 E13.53571
G1 X118.419 Y128.803 E13.55137
G1 X116.64 Y128.72 E13.61061
G1 X113.899 Y128.64 E13.70181
G1 X112.495 Y128.63 E13.74851
G1 X105.56 Y128.63 E13.97917
G1 X105.482 Y128.629 E13.98176
G1 X103.834 Y128.606 E14.03658
G1 X101.073 Y128.606 E14.12841
G1 X100.795 Y128.613 E14.13766
G1 X100.719 Y128.615 E14.14019
G1 X99.429 Y128.63 E14.1831
G1 X97.068 Y128.63 E14.26163
G1 X96.988 Y128.629 E14.26429
G1 X96.29 Y128.619 E14.2875
G1 X95.623 Y128.57 E14.30975
G1 X94.966 Y128.441 E14.33202
G1 X94.33 Y128.235 E14.35425
G1 X93.722 Y127.954 E14.37653
G1 X93.153 Y127.604 E14.39875
G1 X92.629 Y127.187 E14.42102
G1 X91.95 Y126.458 E14.45416
G1 X91.796 Y126.26 E14.4625
G1 X90.088 Y124.103 E14.55401
G1 X90.052 Y124.058 E14.55593
G1 X89.728 Y123.64 E14.57352
G1 X89.536 Y123.377 E14.58435
G1 X89.348 Y123.103 E14.5954
G1 X89.263 Y122.975 E14.60051
G1 X89.082 Y122.695 E14.6116
G1 X88.675 Y121.946 E14.63995
G1 X88.575 Y121.723 E14.64808
G1 X88.487 Y121.516 E14.65556
G1 X88.317 Y121.092 E14.67076
G1 X88.042 Y120.193 E14.70202
G1 X87.974 Y119.879 E14.71271
G1 X87.938 Y119.7 E14.71878
G1 X87.875 Y119.355 E14.73045
G1 X87.785 Y118.453 E14.7606
G1 X87.779 Y118.131 E14.77131
G1 X87.779 Y117.949 E14.77736
G1 X87.784 Y117.588 E14.78937
G1 X87.865 Y116.713 E14.8186
G1 X87.917 Y116.412 E14.82876
G1 X87.962 Y116.178 E14.83668
G1 X88.042 Y115.809 E14.84924
G1 X88.29 Y114.981 E14.87799
G1 X88.403 Y114.688 E14.88843
G1 X88.481 Y114.497 E14.8953
G1 X88.628 Y114.154 E14.90771
G1 X89.053 Y113.35 E14.93795
G1 X89.22 Y113.088 E14.94829
G1 X89.329 Y112.924 E14.95484
G1 X89.543 Y112.613 E14.96739
G1 X90.15 Y111.874 E14.9992
G1 X90.362 Y111.657 E15.00929
G1 X90.453 Y111.566 E15.01357
G1 X90.724 Y111.301 E15.02618
G1 X91.461 Y110.694 E15.05794
G0 F3600 X91.688 Y111.024
G1 F1800 X91.968 Y110.831 E15.06925
G1 X92.086 Y110.752 E15.07397
G1 X92.363 Y110.572 E15.08496
G1 X92.75 Y110.343 E15.09991
G1 X93.842 Y109.761 E15.14107
G1 X93.908 Y109.727 E15.14354
G1 X94.179 Y109.587 E15.15368
G1 X97.166 Y107.926 E15.26736
G1 X97.933 Y107.482 E15.29684
G1 X98.509 Y107.194 E15.31825
G1 X99.117 Y106.98 E15.33969
G1 X99.747 Y106.843 E15.36114
G1 X100.456 Y106.783 E15.3848
G1 X101.208 Y106.771 E15.40982
G1 X101.291 Y106.77 E15.41258
G1 X112.553 Y106.77 E15.78715
G1 X115.209 Y106.732 E15.8755
G1 X117.753 Y106.628 E15.96019
G1 X118.228 Y106.602 E15.97601
G1 X118.747 Y106.599 E15.99327
G1 X121.576 Y106.727 E16.08746
G1 X123.501 Y106.757 E16.15149
G1 X126.067 Y106.797 E16.23685
G1 X129.019 Y106.795 E16.33503
G1 X130.537 Y106.771 E16.38553
G1 X130.619 Y106.77 E16.38826
G1 X133.564 Y106.77 E16.48621
G1 X133.638 Y106.771 E16.48867
G1 X135.255 Y106.794 E16.54246
G1 X138.563 Y106.785 E16.65248
G1 X139.289 Y106.771 E16.67663
G1 X139.39 Y106.77 E16.67999
G1 X140.938 Y106.77 E16.73148
G1 X141.012 Y106.771 E16.73394
G1 X141.71 Y106.781 E16.75716
G1 X142.353 Y106.83 E16.77861
G1 X142.985 Y106.958 E16.80005
G1 X143.596 Y107.164 E16.8215
G1 X144.177 Y107.443 E16.84294
G1 X144.719 Y107.792 E16.86438
G1 X145.213 Y108.206 E16.88581
G1 X145.653 Y108.678 E16.90728
G1 X146.031 Y109.2 E16.92871
G1 X146.341 Y109.765 E16.95015
G1 X146.579 Y110.364 E16.97158
G1 X146.741 Y110.988 E16.99303
G1 X146.834 Y111.834 E17.02133
G1 X146.843 Y112.154 E17.03198
G1 X146.845 Y112.3 E17.03684
G1 X146.845 Y122.358 E17.37137
G1 X146.836 Y123.085 E17.39555
G1 X146.788 Y123.728 E17.417
G1 X146.661 Y124.36 E17.43844
G1 X146.456 Y124.972 E17.4599
G1 X146.178 Y125.553 E17.48133
G1 X145.83 Y126.096 E17.50278
G1 X145.417 Y126.591 E17.52422
G1 X144.946 Y127.031 E17.54566
G1 X144.424 Y127.41 E17.56711
G1 X143.86 Y127.721 E17.58853
G1 X143.261 Y127.96 E17.60998
G1 X142.638 Y128.124 E17.63141
G1 X141.782 Y128.219 E17.66006
G1 X141.461 Y128.228 E17.67074
G1 X141.315 Y128.23 E17.67559
G1 X139.121 Y128.23 E17.74857
