;FLAVOR:Marlin
;TIME:4800
;Filament used: 2.83514m
;Layer height: 0.15
;MINX:70.906
;MINY:82.482
;MINZ:0.2
;MAXX:141.873
;MAXY:147.449
;MAXZ:15.2
;Generated with Cura_SteamEngine 4.1.0
M140 S60
M105
M190 S60
M104 S200
M105
M109 S200
M82 ;absolute extrusion mode
; Ender 3 Custom Start G-code
G28 ; Home all axes
G92 E0 ; Reset Extruder
G1 Z2.0 F3000 ; Move Z Axis up little to prevent scratching of Heat Bed
G1 X0.1 Y20 Z0.3 F5000.0 ; Move to start position
G1 X0.1 Y200.0 Z0.3 F1500.0 E15 ; Draw the first line
G1 X0.4 Y200.0 Z0.3 F5000.0 ; Move to side a little
G1 X0.4 Y20 Z0.3 F1500.0 E30 ; Draw the second line
G92 E0 ; Reset Extruder
G1 Z2.0 F3000 ; Move Z Axis up little to prevent scratching of Heat Bed
; End of custom start GCode
G92 E0
G92 E0
G1 F2400 E-5
;LAYER_COUNT:101
;LAYER:0
M107
M204 S500
M205 X10 Y10
G0 F3600 X73.386 Y83.84 Z0.2
;TYPE:SKIRT
G1 F2400 E0
G1 F1800 X73.974 Y83.433 E0.02378
G1 X74.604 Y83.094 E0.04758
G1 X75.268 Y82.828 E0.07137
G1 X75.957 Y82.637 E0.09515
G1 X76.664 Y82.524 E0.11896
G1 X77.136 Y82.494 E0.13469
G1 X77.456 Y82.485 E0.14534
G1 X77.636 Y82.482 E0.15133
G1 X134.766 Y82.482 E2.05148
G1 X134.858 Y82.483 E2.05454
G1 X135.556 Y82.493 E2.07776
G1 X136.269 Y82.543 E2.10153
G1 X136.973 Y82.672 E2.12534
G1 X137.657 Y82.88 E2.14912
G1 X138.314 Y83.162 E2.1729
G1 X138.936 Y83.516 E2.1967
G1 X139.514 Y83.937 E2.22048
G1 X140.042 Y84.42 E2.24428
G1 X140.512 Y84.958 E2.26804
G1 X140.92 Y85.546 E2.29185
G1 X141.259 Y86.176 E2.31564
G1 X141.526 Y86.839 E2.33942
G1 X141.717 Y87.529 E2.36323
G1 X141.83 Y88.235 E2.38701
G1 X141.861 Y88.712 E2.40291
G1 X141.87 Y89.032 E2.41355
G1 X141.873 Y89.212 E2.41954
G1 X141.873 Y140.22 E4.11607
G1 X141.864 Y140.952 E4.14042
G1 X141.815 Y141.665 E4.16419
G1 X141.687 Y142.369 E4.18799
G1 X141.481 Y143.054 E4.21178
G1 X141.2 Y143.712 E4.23558
G1 X140.847 Y144.334 E4.25937
G1 X140.428 Y144.913 E4.28314
G1 X139.946 Y145.442 E4.30694
G1 X139.408 Y145.913 E4.33072
G1 X138.821 Y146.322 E4.35452
G1 X138.192 Y146.663 E4.37832
G1 X137.529 Y146.931 E4.4021
G1 X136.84 Y147.123 E4.42589
G1 X136.134 Y147.238 E4.44968
G1 X135.643 Y147.27 E4.46605
G1 X135.322 Y147.279 E4.47673
G1 X135.143 Y147.282 E4.48268
G1 X91.1 Y147.282 E5.94756
G1 X88.444 Y147.32 E6.03591
G1 X85.901 Y147.429 E6.12057
G1 X85.811 Y147.432 E6.12356
G1 X85.328 Y147.446 E6.13963
G1 X85.143 Y147.449 E6.14579
G1 X78.013 Y147.449 E6.38293
G1 X77.93 Y147.448 E6.38569
G1 X77.232 Y147.439 E6.40891
G1 X76.519 Y147.39 E6.43268
G1 X75.815 Y147.262 E6.45648
G1 X75.13 Y147.056 E6.48027
G1 X74.473 Y146.774 E6.50405
G1 X73.851 Y146.421 E6.52784
G1 X73.272 Y146.001 E6.55163
G1 X72.743 Y145.519 E6.57543
G1 X72.272 Y144.981 E6.59921
G1 X71.864 Y144.394 E6.62299
G1 X71.524 Y143.764 E6.6468
G1 X71.256 Y143.101 E6.67058
G1 X71.064 Y142.412 E6.69437
G1 X70.95 Y141.706 E6.71816
G1 X70.917 Y141.213 E6.73459
G1 X70.908 Y140.88 E6.74567
G1 X70.906 Y140.707 E6.75143
G1 X70.906 Y89.556 E8.45272
G1 X70.907 Y89.46 E8.45591
G1 X70.917 Y88.795 E8.47803
G1 X70.967 Y88.081 E8.50184
G1 X71.097 Y87.378 E8.52561
G1 X71.305 Y86.694 E8.54939
G1 X71.588 Y86.037 E8.57319
G1 X71.942 Y85.415 E8.59699
G1 X72.364 Y84.837 E8.62079
G1 X72.847 Y84.31 E8.64457
G1 X73.386 Y83.84 E8.66835
G0 F3600 X73.772 Y84.049
G1 F1800 X74.354 Y83.673 E8.6914
G1 X74.975 Y83.367 E8.71443
G1 X75.627 Y83.134 E8.73745
G1 X76.301 Y82.977 E8.76047
G1 X77.147 Y82.893 E8.78875
G1 X77.467 Y82.884 E8.7994
G1 X77.636 Y82.882 E8.80502
G1 X134.766 Y82.882 E10.70517
G1 X134.852 Y82.883 E10.70803
G1 X135.55 Y82.893 E10.73125
G1 X136.241 Y82.942 E10.75429
G1 X136.921 Y83.072 E10.77731
G1 X137.582 Y83.278 E10.80034
G1 X138.215 Y83.56 E10.82339
G1 X138.811 Y83.912 E10.84641
G1 X139.362 Y84.331 E10.86944
G1 X139.862 Y84.811 E10.89249
G1 X140.303 Y85.345 E10.91552
G1 X140.68 Y85.926 E10.93856
G1 X140.987 Y86.547 E10.9616
G1 X141.22 Y87.199 E10.98463
G1 X141.377 Y87.873 E11.00765
G1 X141.462 Y88.723 E11.03606
G1 X141.471 Y89.043 E11.04671
G1 X141.473 Y89.212 E11.05233
G1 X141.473 Y140.215 E12.74869
G1 X141.464 Y140.947 E12.77304
G1 X141.415 Y141.638 E12.79608
G1 X141.287 Y142.318 E12.8191
G1 X141.082 Y142.98 E12.84215
G1 X140.802 Y143.613 E12.86517
G1 X140.451 Y144.21 E12.8882
G1 X140.033 Y144.762 E12.91123
G1 X139.554 Y145.263 E12.93429
G1 X139.021 Y145.705 E12.95732
G1 X138.441 Y146.083 E12.98034
G1 X137.821 Y146.391 E13.00337
G1 X137.169 Y146.626 E13.02642
G1 X136.495 Y146.784 E13.04944
G1 X135.632 Y146.871 E13.07829
G1 X135.311 Y146.88 E13.08897
G1 X135.143 Y146.882 E13.09456
G1 X91.094 Y146.882 E14.55964
G1 X88.422 Y146.92 E14.64852
G1 X85.884 Y147.029 E14.73301
G1 X85.8 Y147.032 E14.7358
G1 X85.317 Y147.046 E14.75188
G1 X85.143 Y147.049 E14.75766
G1 X77.936 Y147.049 E14.99737
G1 X77.238 Y147.04 E15.02059
G1 X76.547 Y146.991 E15.04363
G1 X75.866 Y146.862 E15.06668
G1 X75.205 Y146.657 E15.0897
G1 X74.572 Y146.376 E15.11273
G1 X73.975 Y146.025 E15.13577
G1 X73.423 Y145.607 E15.1588
G1 X72.923 Y145.128 E15.18183
G1 X72.481 Y144.594 E15.20488
G1 X72.104 Y144.014 E15.22789
G1 X71.796 Y143.393 E15.25095
G1 X71.561 Y142.742 E15.27397
G1 X71.404 Y142.067 E15.29702
G1 X71.317 Y141.202 E15.32593
G1 X71.308 Y140.869 E15.33701
G1 X71.306 Y140.707 E15.3424
G1 X71.306 Y89.556 E17.04369
G1 X71.307 Y89.466 E17.04668
G1 X71.317 Y88.801 E17.0688
G1 X71.367 Y88.11 E17.09185
G1 X71.497 Y87.43 E17.11487
G1 X71.704 Y86.769 E17.13791
G1 X71.986 Y86.136 E17.16096
G1 X72.339 Y85.541 E17.18397
G1 X72.758 Y84.989 E17.20702
G1 X73.238 Y84.49 E17.23005
G1 X73.772 Y84.049 E17.25308
G0 F3600 X73.628 Y84.677
G1 F1800 X74.157 Y84.267 E17.27534
G1 X74.731 Y83.924 E17.29758
G1 X75.341 Y83.651 E17.31981
G1 X75.98 Y83.453 E17.34206
G1 X76.639 Y83.332 E17.36435
G1 X77.159 Y83.293 E17.38169
G1 X77.479 Y83.284 E17.39234
G1 X77.636 Y83.282 E17.39756
G1 X134.766 Y83.282 E19.29771
G1 X134.846 Y83.283 E19.30037
G1 X135.544 Y83.293 E19.32359
G1 X136.211 Y83.342 E19.34583
G1 X136.868 Y83.471 E19.3681
G1 X137.504 Y83.677 E19.39034
G1 X138.112 Y83.958 E19.41262
G1 X138.681 Y84.308 E19.43483
G1 X139.205 Y84.725 E19.45711
G1 X139.675 Y85.201 E19.47936
G1 X140.085 Y85.729 E19.50159
G1 X140.43 Y86.303 E19.52387
G1 X140.703 Y86.914 E19.54612
G1 X140.901 Y87.553 E19.56837
G1 X141.022 Y88.211 E19.59063
G1 X141.062 Y88.735 E19.6081
G1 X141.071 Y89.055 E19.61875
G1 X141.073 Y89.212 E19.62397
G1 X141.073 Y140.21 E21.32017
G1 X141.064 Y140.942 E21.34452
G1 X141.015 Y141.609 E21.36677
G1 X140.888 Y142.266 E21.38902
G1 X140.683 Y142.903 E21.41128
G1 X140.404 Y143.511 E21.43353
G1 X140.054 Y144.081 E21.45578
G1 X139.639 Y144.606 E21.47804
G1 X139.164 Y145.077 E21.50028
G1 X138.636 Y145.488 E21.52254
G1 X138.063 Y145.833 E21.54478
G1 X137.453 Y146.108 E21.56704
G1 X136.814 Y146.308 E21.58931
G1 X136.157 Y146.43 E21.61154
G1 X135.621 Y146.471 E21.62941
G1 X135.3 Y146.48 E21.6401
G1 X135.143 Y146.482 E21.64532
G1 X91.088 Y146.482 E23.11059
G1 X88.434 Y146.52 E23.19887
G1 X85.867 Y146.63 E23.28433
G1 X85.788 Y146.633 E23.28696
G1 X85.305 Y146.647 E23.30303
G1 X85.143 Y146.649 E23.30842
G1 X77.941 Y146.649 E23.54796
G1 X77.243 Y146.64 E23.57118
G1 X76.576 Y146.591 E23.59342
G1 X75.919 Y146.463 E23.61568
G1 X75.282 Y146.258 E23.63794
G1 X74.674 Y145.978 E23.66021
G1 X74.104 Y145.628 E23.68245
G1 X73.58 Y145.212 E23.70471
G1 X73.109 Y144.737 E23.72695
G1 X72.698 Y144.209 E23.74921
G1 X72.353 Y143.636 E23.77145
G1 X72.079 Y143.026 E23.7937
G1 X71.879 Y142.387 E23.81597
G1 X71.758 Y141.729 E23.83822
G1 X71.717 Y141.191 E23.85616
G1 X71.708 Y140.858 E23.86724
G1 X71.706 Y140.707 E23.87227
G1 X71.706 Y89.556 E25.57356
G1 X71.707 Y89.472 E25.57635
G1 X71.717 Y88.807 E25.59847
G1 X71.767 Y88.14 E25.62072
G1 X71.896 Y87.483 E25.64299
G1 X72.102 Y86.847 E25.66522
G1 X72.383 Y86.24 E25.68747
G1 X72.735 Y85.67 E25.70975
G1 X73.152 Y85.147 E25.732
G1 X73.628 Y84.677 E25.75425
G0 F3600 X74.017 Y84.872
G1 F1800 X74.539 Y84.494 E25.77568
G1 X75.105 Y84.185 E25.79713
G1 X75.704 Y83.947 E25.81857
G1 X76.328 Y83.786 E25.84
G1 X77.17 Y83.693 E25.86818
G1 X77.49 Y83.684 E25.87882
G1 X77.636 Y83.682 E25.88368
G1 X134.766 Y83.682 E27.78383
G1 X134.84 Y83.683 E27.78629
G1 X135.538 Y83.693 E27.80951
G1 X136.181 Y83.742 E27.83096
G1 X136.813 Y83.87 E27.85241
G1 X137.424 Y84.076 E27.87385
G1 X138.005 Y84.355 E27.89529
G1 X138.547 Y84.704 E27.91673
G1 X139.041 Y85.118 E27.93817
G1 X139.481 Y85.59 E27.95963
G1 X139.859 Y86.112 E27.98107
G1 X140.169 Y86.677 E28.0025
G1 X140.407 Y87.276 E28.02394
G1 X140.569 Y87.9 E28.04538
G1 X140.662 Y88.746 E28.07369
G1 X140.671 Y89.066 E28.08434
G1 X140.673 Y89.212 E28.08919
G1 X140.673 Y140.205 E29.78523
G1 X140.664 Y140.937 E29.80958
G1 X140.616 Y141.58 E29.83102
G1 X140.489 Y142.212 E29.85246
G1 X140.284 Y142.823 E29.8739
G1 X140.006 Y143.405 E29.89535
G1 X139.658 Y143.947 E29.91677
G1 X139.245 Y144.443 E29.93824
G1 X138.774 Y144.883 E29.95968
G1 X138.253 Y145.262 E29.98111
G1 X137.688 Y145.573 E30.00256
G1 X137.09 Y145.812 E30.02398
G1 X136.466 Y145.976 E30.04543
G1 X135.61 Y146.071 E30.07408
G1 X135.289 Y146.08 E30.08476
G1 X135.143 Y146.082 E30.08962
G1 X91.083 Y146.082 E31.55506
G1 X88.411 Y146.12 E31.64394
G1 X85.85 Y146.23 E31.7292
G1 X85.777 Y146.233 E31.73163
G1 X85.294 Y146.247 E31.7477
G1 X85.143 Y146.249 E31.75272
G1 X77.946 Y146.249 E31.99209
G1 X77.248 Y146.24 E32.01531
G1 X76.605 Y146.191 E32.03676
G1 X75.973 Y146.064 E32.0582
G1 X75.362 Y145.859 E32.07964
G1 X74.781 Y145.581 E32.10106
G1 X74.238 Y145.232 E32.12253
G1 X73.743 Y144.819 E32.14397
G1 X73.303 Y144.348 E32.16541
G1 X72.924 Y143.826 E32.18686
G1 X72.613 Y143.262 E32.20828
G1 X72.375 Y142.663 E32.22972
G1 X72.212 Y142.039 E32.25117
G1 X72.117 Y141.18 E32.27992
G1 X72.108 Y140.847 E32.291
G1 X72.106 Y140.707 E32.29565
G1 X72.106 Y89.556 E33.99694
G1 X72.107 Y89.478 E33.99954
G1 X72.117 Y88.813 E34.02166
G1 X72.166 Y88.17 E34.04311
G1 X72.295 Y87.538 E34.06456
G1 X72.501 Y86.927 E34.08601
G1 X72.781 Y86.347 E34.10743
G1 X73.131 Y85.805 E34.12889
G1 X73.545 Y85.311 E34.15032
G1 X74.017 Y84.872 E34.17176
G1 F2400 E29.17176
;MESH:de_dust2_bombsite_A.stl
G0 F3600 X77.92 Y88.217
G0 X77.92 Y89.496
G0 X84.803 Y140.212
G0 X84.873 Y140.282
;TYPE:WALL-INNER
G1 F2400 E34.17176
G1 F1800 X84.873 Y140.449 E34.17732
G1 X77.906 Y140.449 E34.40904
G1 X77.906 Y89.482 E36.10421
G1 X134.873 Y89.482 E37.99894
G1 X134.873 Y140.282 E39.68855
G1 X84.873 Y140.282 E41.35156
G0 F3600 X85.273 Y140.682
;TYPE:WALL-OUTER
G1 F1800 X85.273 Y140.849 E41.35712
G1 X77.506 Y140.849 E41.61545
G1 X77.506 Y89.082 E43.33722
G1 X135.273 Y89.082 E45.25856
G1 X135.273 Y140.682 E46.97479
G1 X85.273 Y140.682 E48.63779
G0 F3600 X85.273 Y140.849
G0 X85.24 Y140.849
G0 X84.803 Y140.379
G0 X84.483 Y140.059
;TYPE:SKIN
G1 F1800 X78.296 Y140.059 E48.84357
G1 X78.296 Y89.872 E50.5128
G1 X134.483 Y89.872 E52.38159
G1 X134.483 Y139.892 E54.04526
G1 X84.483 Y139.892 E55.70827
G1 X84.483 Y140.059 E55.71382
G0 F3600 X78.784 Y139.878
G1 F1800 X78.476 Y139.57 E55.72831
G0 F3600 X78.476 Y139.004
G1 F1800 X79.35 Y139.878 E55.76942
G0 F3600 X79.915 Y139.878
G1 F1800 X78.476 Y138.438 E55.83713
G0 F3600 X78.476 Y137.873
G1 F1800 X80.481 Y139.878 E55.93144
G0 F3600 X81.047 Y139.878
G1 F1800 X78.476 Y137.307 E56.05237
G0 F3600 X78.476 Y136.741
G1 F1800 X81.612 Y139.878 E56.1999
G0 F3600 X82.178 Y139.878
G1 F1800 X78.476 Y136.176 E56.37403
G0 F3600 X78.476 Y135.61
G1 F1800 X82.744 Y139.878 E56.57478
G0 F3600 X83.309 Y139.878
G1 F1800 X78.476 Y135.044 E56.80214
G0 F3600 X78.476 Y134.478
G1 F1800 X83.875 Y139.878 E57.05611
G0 F3600 X84.302 Y139.739
G1 F1800 X78.476 Y133.913 E57.33015
G0 F3600 X78.476 Y133.347
G1 F1800 X84.839 Y139.71 E57.62945
G0 F3600 X85.405 Y139.71
G1 F1800 X78.476 Y132.781 E57.95536
G0 F3600 X78.476 Y132.216
G1 F1800 X85.97 Y139.71 E58.30786
G0 F3600 X86.536 Y139.71
G1 F1800 X78.476 Y131.65 E58.68698
G0 F3600 X78.476 Y131.084
G1 F1800 X87.102 Y139.71 E59.09272
G0 F3600 X87.667 Y139.71
G1 F1800 X78.476 Y130.519 E59.52503
G0 F3600 X78.476 Y129.953
G1 F1800 X88.233 Y139.71 E59.98397
G0 F3600 X88.799 Y139.71
G1 F1800 X78.476 Y129.387 E60.46954
G0 F3600 X78.476 Y128.822
G1 F1800 X89.364 Y139.71 E60.98167
G0 F3600 X89.93 Y139.71
G1 F1800 X78.476 Y128.256 E61.52044
G0 F3600 X78.476 Y127.69
G1 F1800 X90.496 Y139.71 E62.08582
G0 F3600 X91.061 Y139.71
G1 F1800 X78.476 Y127.125 E62.67778
G0 F3600 X78.476 Y126.559
G1 F1800 X91.627 Y139.71 E63.29636
G0 F3600 X92.193 Y139.71
G1 F1800 X78.476 Y125.993 E63.94157
G0 F3600 X78.476 Y125.428
G1 F1800 X92.758 Y139.71 E64.61335
G0 F3600 X93.324 Y139.71
G1 F1800 X78.476 Y124.862 E65.31175
G0 F3600 X78.476 Y124.296
G1 F1800 X93.89 Y139.71 E66.03678
G0 F3600 X94.456 Y139.71
G1 F1800 X78.476 Y123.73 E66.78843
G0 F3600 X78.476 Y123.165
G1 F1800 X95.021 Y139.71 E67.56666
G0 F3600 X95.587 Y139.71
G1 F1800 X78.476 Y122.599 E68.37151
G0 F3600 X78.476 Y122.033
G1 F1800 X96.153 Y139.71 E69.20298
G0 F3600 X96.718 Y139.71
G1 F1800 X78.476 Y121.468 E70.06103
G0 F3600 X78.476 Y120.902
G1 F1800 X97.284 Y139.71 E70.9457
G0 F3600 X97.85 Y139.71
G1 F1800 X78.476 Y120.336 E71.85699
G0 F3600 X78.476 Y119.771
G1 F1800 X98.415 Y139.71 E72.79486
G0 F3600 X98.981 Y139.71
G1 F1800 X78.476 Y119.205 E73.75935
G0 F3600 X78.476 Y118.639
G1 F1800 X99.547 Y139.71 E74.75047
G0 F3600 X100.112 Y139.71
G1 F1800 X78.476 Y118.074 E75.76816
G0 F3600 X78.476 Y117.508
G1 F1800 X100.678 Y139.71 E76.81247
G0 F3600 X101.244 Y139.71
G1 F1800 X78.476 Y116.942 E77.88341
G0 F3600 X78.476 Y116.377
G1 F1800 X101.809 Y139.71 E78.98092
G0 F3600 X102.375 Y139.71
G1 F1800 X78.476 Y115.811 E80.10506
G0 F3600 X78.476 Y115.245
G1 F1800 X102.941 Y139.71 E81.25582
G0 F3600 X103.506 Y139.71
G1 F1800 X78.476 Y114.679 E82.43317
G0 F3600 X78.476 Y114.114
G1 F1800 X104.072 Y139.71 E83.63713
G0 F3600 X104.638 Y139.71
G1 F1800 X78.476 Y113.548 E84.86771
G0 F3600 X78.476 Y112.982
G1 F1800 X105.204 Y139.71 E86.12491
G0 F3600 X105.769 Y139.71
G1 F1800 X78.476 Y112.417 E87.40869
G0 F3600 X78.476 Y111.851
G1 F1800 X106.335 Y139.71 E88.7191
G0 F3600 X106.901 Y139.71
G1 F1800 X78.476 Y111.285 E90.05612
G0 F3600 X78.476 Y110.72
G1 F1800 X107.466 Y139.71 E91.41972
G0 F3600 X108.032 Y139.71
G1 F1800 X78.476 Y110.154 E92.80994
G0 F3600 X78.476 Y109.588
G1 F1800 X108.598 Y139.71 E94.22679
G0 F3600 X109.163 Y139.71
G1 F1800 X78.476 Y109.023 E95.67021
G0 F3600 X78.476 Y108.457
G1 F1800 X109.729 Y139.71 E97.14026
G0 F3600 X110.295 Y139.71
G1 F1800 X78.476 Y107.891 E98.63693
G0 F3600 X78.476 Y107.326
G1 F1800 X110.86 Y139.71 E100.16017
G0 F3600 X111.426 Y139.71
G1 F1800 X78.476 Y106.76 E101.71004
G0 F3600 X78.476 Y106.194
G1 F1800 X111.992 Y139.71 E103.28653
G0 F3600 X112.557 Y139.71
G1 F1800 X78.476 Y105.629 E104.88959
G0 F3600 X78.476 Y105.063
G1 F1800 X113.123 Y139.71 E106.51928
G0 F3600 X113.689 Y139.71
G1 F1800 X78.476 Y104.497 E108.17559
G0 F3600 X78.476 Y103.931
G1 F1800 X114.255 Y139.71 E109.85853
G0 F3600 X114.82 Y139.71
G1 F1800 X78.476 Y103.366 E111.56804
G0 F3600 X78.476 Y102.8
G1 F1800 X115.386 Y139.71 E113.30417
G0 F3600 X115.952 Y139.71
G1 F1800 X78.476 Y102.234 E115.06693
G0 F3600 X78.476 Y101.669
G1 F1800 X116.517 Y139.71 E116.85626
G0 F3600 X117.083 Y139.71
G1 F1800 X78.476 Y101.103 E118.67221
G0 F3600 X78.476 Y100.537
G1 F1800 X117.649 Y139.71 E120.51479
G0 F3600 X118.214 Y139.71
G1 F1800 X78.476 Y99.972 E122.38395
G0 F3600 X78.476 Y99.406
G1 F1800 X118.78 Y139.71 E124.27972
G0 F3600 X119.346 Y139.71
G1 F1800 X78.476 Y98.84 E126.20212
G0 F3600 X78.476 Y98.275
G1 F1800 X119.911 Y139.71 E128.1511
G0 F3600 X120.477 Y139.71
G1 F1800 X78.476 Y97.709 E130.1267
G0 F3600 X78.476 Y97.143
