;FLAVOR:Marlin
;TIME:3331
;Filament used: 2.4195m
;Layer height: 0.15
;MINX:82.572
;MINY:73
;MINZ:0.2
;MAXX:152.428
;MAXY:162
;MAXZ:4.7
;Generated with Cura_SteamEngine 4.1.0
M140 S60
M105
M190 S60
M104 S200
M105
M109 S200
M82 ;absolute extrusion mode
; Ender 3 Custom Start G-code
G28 ; Home all axes
G92 E0 ; Reset Extruder
G1 Z2.0 F3000 ; Move Z Axis up little to prevent scratching of Heat Bed
G1 X0.1 Y20 Z0.3 F5000.0 ; Move to start position
G1 X0.1 Y200.0 Z0.3 F1500.0 E15 ; Draw the first line
G1 X0.4 Y200.0 Z0.3 F5000.0 ; Move to side a little
G1 X0.4 Y20 Z0.3 F1500.0 E30 ; Draw the second line
G92 E0 ; Reset Extruder
G1 Z2.0 F3000 ; Move Z Axis up little to prevent scratching of Heat Bed
; End of custom start GCode
G92 E0
G92 E0
G1 F2400 E-5
;LAYER_COUNT:31
;LAYER:0
M107
M204 S500
M205 X10 Y10
G0 F3600 X89.732 Y75.314 Z0.2
;TYPE:SKIRT
G1 F2400 E0
G1 F1800 X90.22 Y74.79 E0.02382
G1 X90.763 Y74.325 E0.04759
G1 X91.354 Y73.923 E0.07137
G1 X91.987 Y73.589 E0.09517
G1 X92.653 Y73.329 E0.11895
G1 X93.344 Y73.144 E0.14274
G1 X94.051 Y73.037 E0.16653
G1 X94.47 Y73.012 E0.18049
G1 X94.79 Y73.003 E0.19113
G1 X94.97 Y73 E0.19712
G1 X139.653 Y73 E1.68328
G1 X139.745 Y73.001 E1.68634
G1 X140.443 Y73.011 E1.70956
G1 X141.156 Y73.061 E1.73333
G1 X141.86 Y73.19 E1.75714
G1 X142.544 Y73.398 E1.78092
G1 X143.201 Y73.68 E1.8047
G1 X143.823 Y74.034 E1.8285
G1 X144.401 Y74.455 E1.85228
G1 X144.929 Y74.938 E1.87609
G1 X145.399 Y75.476 E1.89985
G1 X145.807 Y76.064 E1.92365
G1 X146.146 Y76.694 E1.94744
G1 X146.413 Y77.357 E1.97122
G1 X146.604 Y78.047 E1.99503
G1 X146.717 Y78.753 E2.01881
G1 X146.75 Y79.294 E2.03684
G1 X146.763 Y80.01 E2.06066
G1 X146.763 Y80.028 E2.06125
G1 X146.798 Y82.293 E2.1366
G1 X146.91 Y84.931 E2.22442
G1 X147.097 Y87.577 E2.31264
G1 X147.361 Y90.232 E2.40138
G1 X147.695 Y92.843 E2.48893
G1 X148.105 Y95.455 E2.57687
G1 X148.585 Y98.037 E2.66422
G1 X149.146 Y100.642 E2.75285
G1 X149.773 Y103.204 E2.84058
G1 X150.87 Y107.081 E2.97459
G1 X151.044 Y107.652 E2.99444
G1 X151.136 Y107.986 E3.00597
G1 X151.307 Y108.68 E3.02974
G1 X151.329 Y108.771 E3.03285
G1 X151.738 Y110.542 E3.09331
G1 X151.756 Y110.621 E3.096
G1 X151.897 Y111.269 E3.11806
G1 X151.99 Y111.81 E3.13632
G1 X152.084 Y112.538 E3.16073
G1 X152.095 Y112.628 E3.16375
G1 X152.297 Y114.388 E3.22267
G1 X152.306 Y114.47 E3.22541
G1 X152.377 Y115.168 E3.24875
G1 X152.409 Y115.684 E3.26594
G1 X152.422 Y116.316 E3.28697
G1 X152.423 Y116.431 E3.29079
G1 X152.428 Y118.312 E3.35336
G1 X152.428 Y118.402 E3.35635
G1 X152.42 Y119.108 E3.37983
G1 X152.391 Y119.646 E3.39775
G1 X152.326 Y120.324 E3.42041
G1 X152.317 Y120.411 E3.42332
G1 X152.12 Y122.207 E3.48341
G1 X152.11 Y122.295 E3.48635
G1 X152.022 Y123.006 E3.51018
G1 X151.932 Y123.544 E3.52833
G1 X151.791 Y124.211 E3.551
G1 X151.772 Y124.296 E3.5539
G1 X151.381 Y126.029 E3.61299
G1 X151.358 Y126.126 E3.6163
G1 X151.182 Y126.853 E3.64118
G1 X151.09 Y127.194 E3.65293
G1 X150.751 Y128.319 E3.69201
G1 X150.021 Y130.87 E3.78026
G1 X149.367 Y133.429 E3.86811
G1 X148.781 Y136.015 E3.9563
G1 X148.271 Y138.61 E4.04426
G1 X147.836 Y141.21 E4.13194
G1 X147.472 Y143.842 E4.22031
G1 X147.181 Y146.491 E4.30895
G1 X146.969 Y149.112 E4.39641
G1 X146.831 Y151.731 E4.48364
G1 X146.749 Y155.723 E4.61644
G1 X146.694 Y156.436 E4.64022
G1 X146.56 Y157.139 E4.66403
G1 X146.349 Y157.822 E4.6878
G1 X146.062 Y158.477 E4.71159
G1 X145.705 Y159.097 E4.73538
G1 X145.28 Y159.672 E4.75916
G1 X144.794 Y160.197 E4.78296
G1 X144.252 Y160.664 E4.80676
G1 X143.662 Y161.068 E4.83054
G1 X143.03 Y161.403 E4.85433
G1 X142.365 Y161.666 E4.87811
G1 X141.674 Y161.853 E4.90192
G1 X140.967 Y161.961 E4.92571
G1 X140.53 Y161.988 E4.94027
G1 X140.21 Y161.997 E4.95092
G1 X140.03 Y162 E4.95691
G1 X95.347 Y162 E6.44307
G1 X95.264 Y161.999 E6.44583
G1 X94.566 Y161.99 E6.46905
G1 X93.853 Y161.941 E6.49282
G1 X93.149 Y161.813 E6.51662
G1 X92.464 Y161.607 E6.54041
G1 X91.807 Y161.325 E6.56419
G1 X91.185 Y160.972 E6.58798
G1 X90.606 Y160.552 E6.61177
G1 X90.077 Y160.07 E6.63557
G1 X89.606 Y159.532 E6.65935
G1 X89.198 Y158.945 E6.68313
G1 X88.858 Y158.315 E6.70694
G1 X88.59 Y157.652 E6.73073
G1 X88.398 Y156.963 E6.75451
G1 X88.284 Y156.257 E6.7783
G1 X88.251 Y155.764 E6.79473
G1 X88.242 Y155.431 E6.80581
G1 X88.24 Y155.325 E6.80934
G1 X88.236 Y154.941 E6.82211
G1 X88.237 Y154.941 E6.82215
G1 X88.202 Y152.707 E6.89646
G1 X88.09 Y150.069 E6.98428
G1 X87.903 Y147.423 E7.0725
G1 X87.64 Y144.77 E7.16118
G1 X87.304 Y142.147 E7.24913
G1 X86.897 Y139.556 E7.33636
G1 X86.414 Y136.957 E7.42429
G1 X85.854 Y134.358 E7.51271
G1 X85.231 Y131.815 E7.5998
G1 X84.12 Y127.884 E7.73566
G1 X83.956 Y127.348 E7.75431
G1 X83.862 Y127.009 E7.76601
G1 X83.692 Y126.318 E7.78967
G1 X83.671 Y126.229 E7.79272
G1 X83.262 Y124.458 E7.85317
G1 X83.244 Y124.379 E7.85586
G1 X83.103 Y123.731 E7.87792
G1 X83.01 Y123.19 E7.89618
G1 X82.916 Y122.462 E7.92059
G1 X82.905 Y122.371 E7.92364
G1 X82.703 Y120.61 E7.9826
G1 X82.694 Y120.53 E7.98527
G1 X82.623 Y119.833 E8.00858
G1 X82.591 Y119.316 E8.02581
G1 X82.578 Y118.684 E8.04683
G1 X82.577 Y118.569 E8.05066
G1 X82.572 Y116.688 E8.11322
G1 X82.572 Y116.599 E8.11618
G1 X82.58 Y115.892 E8.13969
G1 X82.609 Y115.352 E8.15768
G1 X82.674 Y114.675 E8.1803
G1 X82.683 Y114.589 E8.18318
G1 X82.88 Y112.793 E8.24327
G1 X82.89 Y112.706 E8.24618
G1 X82.978 Y111.994 E8.27005
G1 X83.069 Y111.453 E8.28829
G1 X83.21 Y110.787 E8.31093
G1 X83.228 Y110.704 E8.31376
G1 X83.619 Y108.971 E8.37285
G1 X83.641 Y108.876 E8.37609
G1 X83.817 Y108.148 E8.401
G1 X83.911 Y107.804 E8.41286
G1 X84.228 Y106.752 E8.44941
G1 X84.976 Y104.137 E8.53987
G1 X85.637 Y101.561 E8.62832
G1 X86.22 Y98.983 E8.71623
G1 X86.733 Y96.364 E8.805
G1 X87.163 Y93.795 E8.89163
G1 X87.528 Y91.158 E8.98017
G1 X87.819 Y88.508 E9.06884
G1 X88.031 Y85.888 E9.15627
G1 X88.169 Y83.267 E9.24357
G1 X88.218 Y80.692 E9.32923
G1 X88.219 Y80.664 E9.33016
G1 X88.252 Y79.259 E9.3769
G1 X88.308 Y78.546 E9.40069
G1 X88.444 Y77.843 E9.4245
G1 X88.658 Y77.161 E9.44828
G1 X88.946 Y76.506 E9.47208
G1 X89.306 Y75.888 E9.49586
G1 X89.732 Y75.314 E9.51964
G0 F3600 X90.125 Y75.469
G1 F1800 X90.609 Y74.974 E9.54266
G1 X91.147 Y74.538 E9.5657
G1 X91.732 Y74.167 E9.58874
G1 X92.355 Y73.865 E9.61176
G1 X93.009 Y73.638 E9.63479
G1 X93.685 Y73.487 E9.65783
G1 X94.481 Y73.411 E9.68442
G1 X94.801 Y73.402 E9.69507
G1 X94.97 Y73.4 E9.70069
G1 X139.653 Y73.4 E11.18685
G1 X139.739 Y73.401 E11.18971
G1 X140.437 Y73.411 E11.21293
G1 X141.128 Y73.46 E11.23597
G1 X141.808 Y73.59 E11.259
G1 X142.469 Y73.796 E11.28203
G1 X143.102 Y74.078 E11.30508
G1 X143.698 Y74.43 E11.3281
G1 X144.249 Y74.849 E11.35112
G1 X144.749 Y75.329 E11.37417
G1 X145.19 Y75.863 E11.39721
G1 X145.567 Y76.444 E11.42024
G1 X145.874 Y77.065 E11.44329
G1 X146.107 Y77.717 E11.46631
G1 X146.264 Y78.391 E11.48933
G1 X146.35 Y79.301 E11.51973
G1 X146.363 Y80.017 E11.54355
G1 X146.363 Y80.034 E11.54412
G1 X146.397 Y82.279 E11.61879
G1 X146.512 Y84.978 E11.70864
G1 X146.698 Y87.606 E11.79627
G1 X146.964 Y90.29 E11.88598
G1 X147.296 Y92.885 E11.97299
G1 X147.71 Y95.519 E12.06167
G1 X148.194 Y98.123 E12.14977
G1 X148.752 Y100.715 E12.23795
G1 X149.385 Y103.298 E12.32641
G1 X150.492 Y107.21 E12.46163
G1 X150.662 Y107.769 E12.48106
G1 X150.748 Y108.082 E12.49186
G1 X150.919 Y108.776 E12.51563
G1 X150.939 Y108.861 E12.51854
G1 X151.348 Y110.632 E12.57899
G1 X151.365 Y110.706 E12.58151
G1 X151.506 Y111.354 E12.60357
G1 X151.594 Y111.862 E12.62072
G1 X151.688 Y112.59 E12.64513
G1 X151.698 Y112.674 E12.64795
G1 X151.9 Y114.434 E12.70687
G1 X151.908 Y114.511 E12.70944
G1 X151.979 Y115.209 E12.73278
G1 X152.009 Y115.693 E12.74891
G1 X152.022 Y116.325 E12.76993
G1 X152.023 Y116.432 E12.77349
G1 X152.028 Y118.313 E12.83605
G1 X152.028 Y118.397 E12.83885
G1 X152.02 Y119.103 E12.86233
G1 X151.993 Y119.608 E12.87915
G1 X151.928 Y120.286 E12.90181
G1 X151.919 Y120.367 E12.90452
G1 X151.722 Y122.163 E12.96461
G1 X151.713 Y122.246 E12.96739
G1 X151.625 Y122.957 E12.99122
G1 X151.54 Y123.461 E13.00822
G1 X151.399 Y124.128 E13.03089
G1 X151.382 Y124.208 E13.03361
G1 X150.991 Y125.941 E13.0927
G1 X150.97 Y126.032 E13.09581
G1 X150.794 Y126.759 E13.12068
G1 X150.707 Y127.078 E13.13168
G1 X150.392 Y128.123 E13.16798
G1 X149.636 Y130.766 E13.25941
G1 X148.975 Y133.347 E13.34803
G1 X148.392 Y135.922 E13.43584
G1 X147.878 Y138.539 E13.52455
G1 X147.439 Y141.16 E13.61294
G1 X147.073 Y143.815 E13.70208
G1 X146.783 Y146.448 E13.79018
G1 X146.572 Y149.059 E13.87731
G1 X146.431 Y151.732 E13.96633
G1 X146.349 Y155.715 E14.09884
G1 X146.295 Y156.405 E14.12186
G1 X146.161 Y157.084 E14.14488
G1 X145.95 Y157.744 E14.16792
G1 X145.665 Y158.375 E14.19095
G1 X145.309 Y158.969 E14.21398
G1 X144.886 Y159.518 E14.23703
G1 X144.404 Y160.014 E14.26004
G1 X143.867 Y160.452 E14.28309
G1 X143.283 Y160.825 E14.30613
G1 X142.661 Y161.128 E14.32915
G1 X142.007 Y161.358 E14.3522
G1 X141.332 Y161.51 E14.37522
G1 X140.519 Y161.589 E14.40238
G1 X140.199 Y161.598 E14.41303
G1 X140.03 Y161.6 E14.41865
G1 X95.27 Y161.6 E15.90738
G1 X94.572 Y161.591 E15.93059
G1 X93.881 Y161.542 E15.95364
G1 X93.2 Y161.413 E15.97669
G1 X92.539 Y161.208 E15.99971
G1 X91.906 Y160.927 E16.02274
G1 X91.309 Y160.576 E16.04578
G1 X90.757 Y160.158 E16.0688
G1 X90.257 Y159.679 E16.09183
G1 X89.815 Y159.145 E16.11489
G1 X89.438 Y158.565 E16.1379
G1 X89.13 Y157.944 E16.16095
G1 X88.895 Y157.293 E16.18397
G1 X88.738 Y156.618 E16.20702
G1 X88.651 Y155.753 E16.23594
G1 X88.642 Y155.42 E16.24702
G1 X88.64 Y155.32 E16.25034
G1 X88.636 Y154.936 E16.26312
G1 X88.637 Y154.936 E16.26315
G1 X88.603 Y152.721 E16.33683
G1 X88.488 Y150.022 E16.42668
G1 X88.302 Y147.394 E16.51431
G1 X88.036 Y144.713 E16.60392
G1 X87.702 Y142.106 E16.69133
G1 X87.292 Y139.492 E16.77934
G1 X86.804 Y136.871 E16.86801
G1 X86.248 Y134.285 E16.95599
G1 X85.615 Y131.702 E17.04444
G1 X84.512 Y127.801 E17.17928
G1 X84.338 Y127.232 E17.19907
G1 X84.251 Y126.913 E17.21006
G1 X84.081 Y126.222 E17.23373
G1 X84.061 Y126.139 E17.23657
G1 X83.652 Y124.368 E17.29702
G1 X83.635 Y124.294 E17.29955
G1 X83.494 Y123.646 E17.32161
G1 X83.406 Y123.138 E17.33875
G1 X83.312 Y122.41 E17.36317
G1 X83.302 Y122.326 E17.36598
G1 X83.1 Y120.565 E17.42494
G1 X83.092 Y120.489 E17.42748
G1 X83.021 Y119.792 E17.45078
G1 X82.991 Y119.307 E17.46694
G1 X82.978 Y118.675 E17.48797
G1 X82.977 Y118.568 E17.49153
G1 X82.972 Y116.687 E17.55409
G1 X82.972 Y116.603 E17.55688
G1 X82.98 Y115.896 E17.5804
G1 X83.007 Y115.391 E17.59722
G1 X83.072 Y114.714 E17.61984
G1 X83.081 Y114.633 E17.62255
G1 X83.278 Y112.837 E17.68265
G1 X83.287 Y112.755 E17.68539
G1 X83.375 Y112.043 E17.70925
G1 X83.46 Y111.536 E17.72635
G1 X83.601 Y110.87 E17.74899
G1 X83.618 Y110.792 E17.75165
G1 X84.009 Y109.059 E17.81074
G1 X84.03 Y108.97 E17.81378
G1 X84.206 Y108.242 E17.83869
G1 X84.294 Y107.919 E17.84982
G1 X84.608 Y106.877 E17.88602
G1 X85.372 Y104.208 E17.97836
G1 X86.02 Y101.676 E18.06528
G1 X86.616 Y99.043 E18.15507
G1 X87.12 Y96.47 E18.24228
G1 X87.566 Y93.81 E18.33199
G1 X87.924 Y91.22 E18.41895
G1 X88.217 Y88.551 E18.50825
G1 X88.428 Y85.94 E18.59538
G1 X88.569 Y83.265 E18.68447
G1 X88.618 Y80.7 E18.7698
G1 X88.619 Y80.673 E18.7707
G1 X88.652 Y79.268 E18.81744
G1 X88.708 Y78.578 E18.84047
G1 X88.843 Y77.899 E18.86349
G1 X89.056 Y77.24 E18.88653
G1 X89.343 Y76.609 E18.90958
G1 X89.701 Y76.017 E18.93259
G1 X90.125 Y75.469 E18.95564
G0 F3600 X90.517 Y75.63
G1 F1800 X90.997 Y75.164 E18.97789
G1 X91.53 Y74.759 E19.00015
G1 X92.107 Y74.42 E19.02241
G1 X92.72 Y74.152 E19.04466
G1 X93.36 Y73.96 E19.06689
G1 X94.02 Y73.845 E19.08917
G1 X94.493 Y73.811 E19.10494
G1 X94.813 Y73.802 E19.11559
G1 X94.97 Y73.8 E19.12081
G1 X139.653 Y73.8 E20.60698
G1 X139.733 Y73.801 E20.60964
G1 X140.431 Y73.811 E20.63285
G1 X141.098 Y73.86 E20.6551
G1 X141.755 Y73.989 E20.67737
G1 X142.391 Y74.195 E20.6996
G1 X142.999 Y74.476 E20.72188
G1 X143.568 Y74.826 E20.7441
G1 X144.092 Y75.243 E20.76637
G1 X144.562 Y75.719 E20.78862
G1 X144.972 Y76.247 E20.81086
G1 X145.317 Y76.821 E20.83313
G1 X145.59 Y77.432 E20.85539
G1 X145.788 Y78.071 E20.87764
G1 X145.909 Y78.729 E20.89989
G1 X145.95 Y79.308 E20.9192
G1 X145.963 Y80.024 E20.94302
G1 X145.963 Y80.04 E20.94355
G1 X145.998 Y82.302 E21.01879
G1 X146.112 Y84.987 E21.10817
G1 X146.3 Y87.637 E21.19654
G1 X146.564 Y90.308 E21.28581
G1 X146.904 Y92.965 E21.3749
G1 X147.316 Y95.582 E21.46301
G1 X147.805 Y98.216 E21.55212
G1 X148.365 Y100.816 E21.64058
G1 X148.996 Y103.392 E21.72879
G1 X150.108 Y107.325 E21.86473
G1 X150.279 Y107.885 E21.8842
G1 X150.359 Y108.177 E21.89427
G1 X150.53 Y108.871 E21.91805
G1 X150.549 Y108.951 E21.92078
G1 X150.958 Y110.722 E21.98123
G1 X150.974 Y110.791 E21.98359
G1 X151.115 Y111.439 E22.00565
G1 X151.197 Y111.913 E22.02165
G1 X151.291 Y112.641 E22.04606
G1 X151.3 Y112.719 E22.04867
G1 X151.502 Y114.479 E22.10759
G1 X151.51 Y114.551 E22.11
G1 X151.581 Y115.249 E22.13334
G1 X151.609 Y115.701 E22.1484
G1 X151.622 Y116.333 E22.16943
G1 X151.623 Y116.433 E22.17275
G1 X151.628 Y118.314 E22.23532
G1 X151.628 Y118.392 E22.23791
G1 X151.62 Y119.098 E22.26139
G1 X151.594 Y119.569 E22.27708
G1 X151.529 Y120.247 E22.29974
G1 X151.522 Y120.324 E22.30231
G1 X151.325 Y122.12 E22.3624
G1 X151.316 Y122.197 E22.36498
G1 X151.228 Y122.908 E22.38881
G1 X151.149 Y123.378 E22.40466
G1 X151.008 Y124.045 E22.42733
G1 X150.992 Y124.119 E22.42985
G1 X150.601 Y125.852 E22.48894
G1 X150.581 Y125.938 E22.49188
G1 X150.405 Y126.665 E22.51676
G1 X150.324 Y126.963 E22.52703
G1 X149.996 Y128.052 E22.56485
G1 X149.246 Y130.671 E22.65546
G1 X148.593 Y133.223 E22.74308
G1 X147.996 Y135.861 E22.83304
G1 X147.485 Y138.462 E22.9212
G1 X147.042 Y141.105 E23.01033
G1 X146.677 Y143.749 E23.09911
G1 X146.388 Y146.377 E23.18704
G1 X146.17 Y149.075 E23.27707
G1 X146.031 Y151.704 E23.36463
G1 X145.949 Y155.706 E23.49777
G1 X145.895 Y156.373 E23.52003
G1 X145.762 Y157.029 E23.54229
G1 X145.552 Y157.664 E23.56453
G1 X145.268 Y158.27 E23.58679
G1 X144.913 Y158.837 E23.60904
G1 X144.494 Y159.358 E23.63128
G1 X144.015 Y159.825 E23.65353
G1 X143.484 Y160.232 E23.67578
G1 X142.908 Y160.573 E23.69805
G1 X142.295 Y160.842 E23.72031
G1 X141.655 Y161.037 E23.74256
G1 X140.997 Y161.154 E23.76479
G1 X140.507 Y161.189 E23.78113
G1 X140.187 Y161.198 E23.79178
G1 X140.03 Y161.2 E23.797
G1 X95.275 Y161.2 E25.28556
G1 X94.577 Y161.191 E25.30878
G1 X93.91 Y161.142 E25.33102
G1 X93.253 Y161.014 E25.35328
G1 X92.616 Y160.809 E25.37554
G1 X92.008 Y160.529 E25.3978
G1 X91.438 Y160.179 E25.42005
G1 X90.914 Y159.763 E25.4423
G1 X90.443 Y159.288 E25.46455
G1 X90.032 Y158.76 E25.48681
G1 X89.687 Y158.187 E25.50905
G1 X89.413 Y157.577 E25.53129
G1 X89.213 Y156.938 E25.55356
G1 X89.092 Y156.28 E25.57582
G1 X89.051 Y155.742 E25.59376
G1 X89.042 Y155.409 E25.60484
G1 X89.04 Y155.316 E25.60793
G1 X89.036 Y154.932 E25.62071
G1 X89.037 Y154.932 E25.62074
G1 X89.002 Y152.698 E25.69505
G1 X88.888 Y150.013 E25.78444
G1 X88.7 Y147.359 E25.87293
G1 X88.436 Y144.693 E25.96204
G1 X88.095 Y142.03 E26.05133
G1 X87.686 Y139.429 E26.1389
G1 X87.194 Y136.778 E26.22858
G1 X86.635 Y134.184 E26.31684
G1 X86.004 Y131.608 E26.40505
G1 X84.891 Y127.672 E26.5411
G1 X84.721 Y127.115 E26.56046
G1 X84.639 Y126.818 E26.57071
G1 X84.469 Y126.127 E26.59438
G1 X84.451 Y126.049 E26.59704
G1 X84.042 Y124.278 E26.6575
G1 X84.026 Y124.209 E26.65985
G1 X83.885 Y123.561 E26.68191
G1 X83.803 Y123.087 E26.69791
G1 X83.709 Y122.359 E26.72232
G1 X83.699 Y122.28 E26.72497
G1 X83.497 Y120.519 E26.78393
G1 X83.49 Y120.449 E26.78627
G1 X83.419 Y119.752 E26.80957
G1 X83.391 Y119.299 E26.82467
