;FLAVOR:Marlin
;TIME:636
;Filament used: 0.387965m
;Layer height: 0.2
;MINX:90.452
;MINY:90.888
;MINZ:0.2
;MAXX:144.547
;MAXY:144.211
;MAXZ:2.6
;Generated with Cura_SteamEngine 4.1.0
M140 S60
M105
M190 S60
M104 S200
M105
M109 S200
M82 ;absolute extrusion mode
; Ender 3 Custom Start G-code
G28 ; Home all axes
G92 E0 ; Reset Extruder
G1 Z2.0 F3000 ; Move Z Axis up little to prevent scratching of Heat Bed
G1 X0.1 Y20 Z0.3 F5000.0 ; Move to start position
G1 X0.1 Y200.0 Z0.3 F1500.0 E15 ; Draw the first line
G1 X0.4 Y200.0 Z0.3 F5000.0 ; Move to side a little
G1 X0.4 Y20 Z0.3 F1500.0 E30 ; Draw the second line
G92 E0 ; Reset Extruder
G1 Z2.0 F3000 ; Move Z Axis up little to prevent scratching of Heat Bed
; End of custom start GCode
G92 E0
G92 E0
G1 F2400 E-5
;LAYER_COUNT:13
;LAYER:0
M107
M204 S500
M205 X10 Y10
G0 F3600 X95.192 Y99.5 Z0.2
;TYPE:SKIRT
G1 F2400 E0
G1 F1800 X95.305 Y99.393 E0.00518
G1 X95.472 Y99.239 E0.01273
G1 X95.67 Y99.064 E0.02152
G1 X95.868 Y98.896 E0.03016
G1 X96.068 Y98.734 E0.03872
G1 X96.352 Y98.512 E0.05071
G1 X96.638 Y98.3 E0.06255
G1 X96.868 Y98.14 E0.07187
G1 X97.1 Y97.986 E0.08113
G1 X97.574 Y97.686 E0.09979
G1 X97.907 Y97.489 E0.11265
G1 X98.268 Y97.29 E0.12636
G1 X98.722 Y97.063 E0.14325
G1 X99.222 Y96.837 E0.1615
G1 X99.619 Y96.673 E0.17578
G1 X100.409 Y96.378 E0.20383
G1 X100.896 Y96.218 E0.22088
G1 X101.149 Y96.146 E0.22963
G1 X101.369 Y96.088 E0.2372
G1 X101.738 Y95.997 E0.24984
G1 X101.898 Y95.96 E0.2553
G1 X102.258 Y95.881 E0.26756
G1 X102.683 Y95.802 E0.28194
G1 X103.759 Y95.641 E0.31812
G1 X103.904 Y95.621 E0.32299
G1 X104.284 Y95.573 E0.33573
G1 X104.449 Y95.555 E0.34125
G1 X104.689 Y95.531 E0.34927
G1 X104.846 Y95.517 E0.35452
G1 X105.144 Y95.495 E0.36445
G1 X107.853 Y95.253 E0.45491
G1 X110.47 Y94.945 E0.54256
G1 X113.741 Y94.455 E0.65256
G1 X116.793 Y93.942 E0.7555
G1 X119.405 Y93.465 E0.84381
G1 X122.015 Y92.911 E0.93255
G1 X124.562 Y92.296 E1.0197
G1 X127.136 Y91.596 E1.10842
G1 X128.123 Y91.299 E1.1427
G1 X128.226 Y91.269 E1.14627
G1 X128.753 Y91.12 E1.16449
G1 X129.451 Y90.965 E1.18827
G1 X130.162 Y90.888 E1.21206
G1 X130.877 Y90.89 E1.23584
G1 X131.588 Y90.973 E1.25965
G1 X132.284 Y91.135 E1.28341
G1 X132.775 Y91.299 E1.30063
G1 X133.947 Y91.746 E1.34235
G1 X134.521 Y91.998 E1.3632
G1 X135.44 Y92.456 E1.39735
G1 X135.661 Y92.572 E1.40565
G1 X135.869 Y92.686 E1.41354
G1 X136.147 Y92.847 E1.42423
G1 X136.979 Y93.359 E1.45672
G1 X137.405 Y93.645 E1.47379
G1 X138.408 Y94.379 E1.51512
G1 X138.902 Y94.78 E1.53629
G1 X139.758 Y95.548 E1.57454
G1 X140.09 Y95.868 E1.58987
G1 X140.447 Y96.238 E1.60697
G1 X140.576 Y96.376 E1.61326
G1 X140.827 Y96.652 E1.62567
G1 X141.031 Y96.888 E1.63604
G1 X141.256 Y97.161 E1.64781
G1 X141.359 Y97.289 E1.65327
G1 X141.506 Y97.477 E1.66121
G1 X141.678 Y97.708 E1.67079
G1 X141.957 Y98.1 E1.68679
G1 X142.056 Y98.243 E1.69258
G1 X142.195 Y98.45 E1.70087
G1 X142.296 Y98.605 E1.70702
G1 X142.458 Y98.862 E1.71713
G1 X142.652 Y99.191 E1.72983
G1 X142.845 Y99.542 E1.74315
G1 X142.977 Y99.795 E1.75264
G1 X143.193 Y100.233 E1.76889
G1 X143.371 Y100.626 E1.78324
G1 X143.647 Y101.296 E1.80734
G1 X143.768 Y101.616 E1.81872
G1 X143.835 Y101.807 E1.82545
G1 X143.948 Y102.159 E1.83774
G1 X144.068 Y102.577 E1.85221
G1 X144.173 Y102.996 E1.86658
G1 X144.305 Y103.609 E1.88743
G1 X144.384 Y104.054 E1.90246
G1 X144.42 Y104.307 E1.91096
G1 X144.454 Y104.588 E1.92038
G1 X144.505 Y105.111 E1.93786
G1 X144.531 Y105.496 E1.95069
G1 X144.547 Y105.929 E1.9651
G1 X144.545 Y106.451 E1.98246
G1 X144.519 Y107.032 E2.00181
G1 X144.485 Y107.46 E2.01609
G1 X144.398 Y108.235 E2.04202
G1 X144.306 Y108.816 E2.06159
G1 X144.213 Y109.266 E2.07687
G1 X144.133 Y109.604 E2.08843
G1 X143.963 Y110.248 E2.11058
G1 X143.867 Y110.575 E2.12191
G1 X143.765 Y110.892 E2.13299
G1 X143.629 Y111.274 E2.14648
G1 X143.244 Y112.253 E2.18147
G1 X143.168 Y112.438 E2.18812
G1 X142.96 Y112.922 E2.20564
G1 X142.875 Y113.112 E2.21256
G1 X141.713 Y115.591 E2.30362
G1 X140.672 Y117.983 E2.39039
G1 X139.661 Y120.497 E2.48051
G1 X139.099 Y121.993 E2.53366
G1 X138.674 Y123.154 E2.57479
G1 X138.637 Y123.253 E2.5783
G1 X137.586 Y125.983 E2.6756
G1 X136.711 Y128.47 E2.76329
G1 X135.897 Y131.011 E2.85203
G1 X135.172 Y133.514 E2.9387
G1 X134.444 Y136.346 E3.03596
G1 X134.401 Y136.502 E3.04134
G1 X134.376 Y136.59 E3.04438
G1 X134.143 Y137.266 E3.06816
G1 X133.835 Y137.912 E3.09197
G1 X133.457 Y138.519 E3.11575
G1 X133.014 Y139.081 E3.13955
G1 X132.511 Y139.589 E3.16333
G1 X132.236 Y139.824 E3.17536
G1 X131.772 Y140.198 E3.19518
G1 X131.461 Y140.434 E3.20817
G1 X130.782 Y140.916 E3.23586
G1 X130.5 Y141.105 E3.24715
G1 X130.007 Y141.417 E3.26656
G1 X129.839 Y141.52 E3.27311
G1 X129.519 Y141.709 E3.28547
G1 X129.376 Y141.79 E3.29094
G1 X128.88 Y142.066 E3.30982
G1 X128.605 Y142.211 E3.32016
G1 X128.239 Y142.392 E3.33374
G1 X127.942 Y142.529 E3.34462
G1 X126.95 Y142.958 E3.38057
G1 X126.397 Y143.168 E3.40024
G1 X125.313 Y143.522 E3.43817
G1 X124.878 Y143.647 E3.45322
G1 X124.354 Y143.778 E3.47119
G1 X124.183 Y143.818 E3.47703
G1 X123.821 Y143.898 E3.48936
G1 X123.427 Y143.972 E3.50269
G1 X122.863 Y144.06 E3.52168
G1 X122.485 Y144.108 E3.53435
G1 X122.014 Y144.153 E3.55009
G1 X121.824 Y144.168 E3.55643
G1 X121.489 Y144.19 E3.56759
G1 X121.286 Y144.2 E3.57435
G1 X121.079 Y144.207 E3.58124
G1 X120.786 Y144.211 E3.59099
G1 X120.455 Y144.207 E3.602
G1 X120.099 Y144.192 E3.61385
G1 X119.436 Y144.147 E3.63595
G1 X119.036 Y144.107 E3.64932
G1 X118.465 Y144.032 E3.66848
G1 X118.17 Y143.987 E3.6784
G1 X117.941 Y143.946 E3.68614
G1 X117.555 Y143.864 E3.69926
G1 X117.095 Y143.752 E3.71501
G1 X116.77 Y143.664 E3.72621
G1 X116.54 Y143.595 E3.7342
G1 X116.341 Y143.532 E3.74114
G1 X115.96 Y143.404 E3.75451
G1 X115.602 Y143.272 E3.7672
G1 X115.389 Y143.186 E3.77484
G1 X115.125 Y143.072 E3.7844
G1 X114.615 Y142.839 E3.80305
G1 X114.265 Y142.666 E3.81604
G1 X113.931 Y142.488 E3.82862
G1 X113.503 Y142.238 E3.84511
G1 X112.941 Y141.88 E3.86727
G1 X112.586 Y141.637 E3.88158
G1 X112.026 Y141.225 E3.9047
G1 X111.561 Y140.848 E3.92462
G1 X111.175 Y140.504 E3.94181
G1 X111.033 Y140.374 E3.94822
G1 X110.883 Y140.232 E3.95509
G1 X110.734 Y140.086 E3.96202
G1 X110.445 Y139.794 E3.97569
G1 X110.287 Y139.628 E3.98331
G1 X110.077 Y139.4 E3.99362
G1 X109.804 Y139.084 E4.00751
G1 X109.381 Y138.56 E4.02991
G1 X109.286 Y138.439 E4.03502
G1 X108.716 Y137.697 E4.06614
G1 X108.525 Y137.435 E4.07693
G1 X107.978 Y136.643 E4.10894
G1 X106.429 Y134.46 E4.19797
G1 X104.821 Y132.326 E4.28684
G1 X103.073 Y130.139 E4.37996
G1 X101.45 Y128.171 E4.46481
G1 X101.347 Y128.042 E4.4703
G1 X101.007 Y127.607 E4.48866
G1 X99.308 Y125.558 E4.57719
G1 X97.568 Y123.577 E4.66489
G1 X95.764 Y121.634 E4.75307
G1 X93.904 Y119.742 E4.84131
G1 X92.682 Y118.558 E4.89791
G1 X92.563 Y118.44 E4.90348
G1 X92.467 Y118.342 E4.90804
G1 X91.996 Y117.803 E4.93185
G1 X91.588 Y117.216 E4.95563
G1 X91.248 Y116.587 E4.97941
G1 X90.98 Y115.924 E5.00319
G1 X90.788 Y115.235 E5.02698
G1 X90.711 Y114.817 E5.04112
G1 X90.621 Y114.22 E5.0612
G1 X90.572 Y113.809 E5.07497
G1 X90.486 Y112.799 E5.10868
G1 X90.471 Y112.585 E5.11582
G1 X90.46 Y112.371 E5.12294
G1 X90.452 Y112.042 E5.13389
G1 X90.452 Y111.159 E5.16326
G1 X90.455 Y110.962 E5.16981
G1 X90.463 Y110.702 E5.17846
G1 X90.483 Y110.355 E5.19002
G1 X90.569 Y109.347 E5.22367
G1 X90.644 Y108.775 E5.24286
G1 X90.862 Y107.544 E5.28444
G1 X90.957 Y107.1 E5.29954
G1 X91.049 Y106.734 E5.31209
G1 X91.092 Y106.571 E5.3177
G1 X91.208 Y106.156 E5.33203
G1 X91.353 Y105.703 E5.34785
G1 X91.665 Y104.84 E5.37837
G1 X91.774 Y104.56 E5.38837
G1 X91.865 Y104.341 E5.39625
G1 X92.055 Y103.926 E5.41144
G1 X92.428 Y103.183 E5.43909
G1 X92.667 Y102.749 E5.45557
G1 X93.039 Y102.132 E5.47953
G1 X93.356 Y101.657 E5.49852
G1 X93.741 Y101.131 E5.5202
G1 X93.887 Y100.939 E5.52823
G1 X94.035 Y100.752 E5.53616
G1 X94.267 Y100.475 E5.54817
G1 X94.607 Y100.092 E5.56521
G1 X94.941 Y99.743 E5.58128
G1 X95.192 Y99.5 E5.5929
G0 F3600 X95.471 Y99.787
G1 F1800 X95.577 Y99.687 E5.59774
G1 X95.744 Y99.533 E5.6053
G1 X95.929 Y99.369 E5.61352
G1 X96.127 Y99.201 E5.62216
G1 X96.314 Y99.049 E5.63017
G1 X96.598 Y98.827 E5.64216
G1 X96.867 Y98.629 E5.65327
G1 X97.097 Y98.469 E5.66259
G1 X97.314 Y98.324 E5.67127
G1 X97.788 Y98.024 E5.68993
G1 X98.1 Y97.839 E5.70199
G1 X98.461 Y97.64 E5.7157
G1 X98.887 Y97.428 E5.73153
G1 X99.387 Y97.202 E5.74978
G1 X99.759 Y97.048 E5.76317
G1 X100.549 Y96.753 E5.79122
G1 X101.006 Y96.603 E5.80722
G1 X101.259 Y96.531 E5.81596
G1 X101.464 Y96.477 E5.82301
G1 X101.833 Y96.386 E5.83566
G1 X101.984 Y96.35 E5.84082
G1 X102.344 Y96.271 E5.85308
G1 X102.742 Y96.198 E5.86654
G1 X103.818 Y96.037 E5.90272
G1 X103.954 Y96.018 E5.90729
G1 X104.334 Y95.97 E5.92003
G1 X104.489 Y95.953 E5.92521
G1 X104.729 Y95.929 E5.93324
G1 X104.876 Y95.916 E5.93815
G1 X105.207 Y95.891 E5.94919
G1 X107.868 Y95.654 E6.03804
G1 X110.516 Y95.342 E6.12672
G1 X113.857 Y94.841 E6.23909
G1 X116.797 Y94.347 E6.33824
G1 X119.522 Y93.85 E6.43037
G1 X122.087 Y93.306 E6.51758
G1 X124.656 Y92.685 E6.60549
G1 X127.276 Y91.973 E6.69579
G1 X128.238 Y91.683 E6.72921
G1 X128.335 Y91.654 E6.73258
G1 X128.862 Y91.505 E6.75079
G1 X129.538 Y91.356 E6.77382
G1 X130.227 Y91.285 E6.79685
G1 X130.919 Y91.294 E6.81987
G1 X131.606 Y91.383 E6.84291
G1 X132.278 Y91.55 E6.86594
G1 X132.632 Y91.673 E6.87841
G1 X133.804 Y92.12 E6.92013
G1 X134.342 Y92.356 E6.93967
G1 X135.261 Y92.814 E6.97382
G1 X135.469 Y92.922 E6.98161
G1 X135.677 Y93.036 E6.9895
G1 X135.938 Y93.188 E6.99955
G1 X136.77 Y93.7 E7.03204
G1 X137.168 Y93.968 E7.048
G1 X138.171 Y94.702 E7.08934
G1 X138.635 Y95.078 E7.1092
G1 X139.491 Y95.846 E7.14745
G1 X139.802 Y96.146 E7.16182
G1 X140.159 Y96.516 E7.17892
G1 X140.28 Y96.645 E7.18481
G1 X140.531 Y96.921 E7.19721
G1 X140.722 Y97.142 E7.20693
G1 X140.947 Y97.415 E7.2187
G1 X141.044 Y97.535 E7.22383
G1 X141.191 Y97.723 E7.23177
G1 X141.352 Y97.94 E7.24075
G1 X141.631 Y98.332 E7.25676
G1 X141.724 Y98.466 E7.26218
G1 X141.863 Y98.673 E7.27047
G1 X141.958 Y98.819 E7.27627
G1 X142.12 Y99.076 E7.28637
G1 X142.302 Y99.384 E7.29827
G1 X142.495 Y99.735 E7.31159
G1 X142.618 Y99.972 E7.32047
G1 X142.834 Y100.41 E7.33672
G1 X143.001 Y100.779 E7.35019
G1 X143.277 Y101.449 E7.37429
G1 X143.391 Y101.748 E7.38493
G1 X143.458 Y101.939 E7.39167
G1 X143.563 Y102.269 E7.40318
G1 X143.683 Y102.687 E7.41765
G1 X143.782 Y103.08 E7.43113
G1 X143.914 Y103.693 E7.45198
G1 X143.988 Y104.111 E7.4661
G1 X144.024 Y104.364 E7.4746
G1 X144.056 Y104.627 E7.48341
G1 X144.107 Y105.15 E7.50089
G1 X144.131 Y105.51 E7.51289
G1 X144.147 Y105.943 E7.5273
G1 X144.145 Y106.433 E7.5436
G1 X144.119 Y107.014 E7.56294
G1 X144.088 Y107.415 E7.57632
G1 X144.001 Y108.19 E7.60226
G1 X143.914 Y108.735 E7.62062
G1 X143.821 Y109.185 E7.6359
G1 X143.746 Y109.502 E7.64673
G1 X143.576 Y110.146 E7.66889
G1 X143.487 Y110.453 E7.67952
G1 X143.385 Y110.77 E7.69059
G1 X143.257 Y111.128 E7.70324
G1 X142.872 Y112.107 E7.73823
G1 X142.801 Y112.28 E7.74445
G1 X142.593 Y112.764 E7.76197
G1 X142.512 Y112.942 E7.76847
G1 X141.369 Y115.381 E7.85806
G1 X140.298 Y117.84 E7.94727
G1 X139.295 Y120.334 E8.03668
G1 X138.706 Y121.903 E8.09242
G1 X138.298 Y123.017 E8.13188
G1 X138.264 Y123.109 E8.13514
G1 X137.212 Y125.843 E8.23257
G1 X136.329 Y128.352 E8.32104
G1 X135.515 Y130.893 E8.40978
G1 X134.78 Y133.43 E8.49763
G1 X134.056 Y136.246 E8.59434
G1 X134.017 Y136.393 E8.5994
G1 X133.992 Y136.481 E8.60244
G1 X133.764 Y137.135 E8.62548
G1 X133.463 Y137.758 E8.64849
G1 X133.092 Y138.343 E8.67153
G1 X132.656 Y138.881 E8.69456
G1 X131.985 Y139.512 E8.7252
G1 X131.521 Y139.886 E8.74502
G1 X131.229 Y140.108 E8.75722
G1 X130.55 Y140.59 E8.78492
G1 X130.286 Y140.767 E8.79549
G1 X129.793 Y141.079 E8.81489
G1 X129.635 Y141.175 E8.82104
G1 X129.315 Y141.364 E8.8334
G1 X129.181 Y141.441 E8.83854
G1 X128.685 Y141.717 E8.85742
G1 X128.428 Y141.852 E8.86708
G1 X128.062 Y142.033 E8.88066
G1 X127.784 Y142.162 E8.89085
G1 X126.792 Y142.591 E8.9268
G1 X126.273 Y142.788 E8.94526
G1 X125.189 Y143.142 E8.98319
G1 X124.781 Y143.259 E8.99731
G1 X124.257 Y143.39 E9.01527
G1 X124.097 Y143.428 E9.02074
G1 X123.735 Y143.508 E9.03307
G1 X123.365 Y143.577 E9.04559
G1 X122.801 Y143.665 E9.06458
G1 X122.447 Y143.71 E9.07644
G1 X121.976 Y143.755 E9.09218
G1 X121.798 Y143.769 E9.09812
G1 X121.463 Y143.791 E9.10929
G1 X121.273 Y143.801 E9.11561
G1 X121.066 Y143.808 E9.1225
G1 X120.79 Y143.811 E9.13168
G1 X120.459 Y143.807 E9.14269
G1 X120.126 Y143.793 E9.15378
G1 X119.463 Y143.748 E9.17588
G1 X119.088 Y143.711 E9.18841
G1 X118.517 Y143.636 E9.20757
G1 X118.241 Y143.593 E9.21686
G1 X118.012 Y143.552 E9.2246
G1 X117.65 Y143.476 E9.2369
G1 X117.19 Y143.364 E9.25265
G1 X116.885 Y143.281 E9.26316
G1 X116.655 Y143.212 E9.27115
G1 X116.468 Y143.153 E9.27767
G1 X116.087 Y143.025 E9.29104
G1 X115.752 Y142.901 E9.30292
G1 X115.539 Y142.815 E9.31056
G1 X115.292 Y142.708 E9.31951
G1 X114.782 Y142.475 E9.33816
G1 X114.453 Y142.313 E9.35036
G1 X114.119 Y142.135 E9.36294
G1 X113.717 Y141.9 E9.37843
G1 X113.155 Y141.542 E9.40059
G1 X112.823 Y141.315 E9.41397
G1 X112.263 Y140.903 E9.43709
G1 X111.827 Y140.549 E9.45577
G1 X111.441 Y140.205 E9.47297
G1 X111.308 Y140.083 E9.47897
G1 X111.158 Y139.941 E9.48584
G1 X111.019 Y139.805 E9.49231
G1 X110.73 Y139.513 E9.50598
G1 X110.581 Y139.357 E9.51315
G1 X110.371 Y139.129 E9.52346
G1 X110.115 Y138.833 E9.53648
G1 X109.692 Y138.309 E9.55887
G1 X109.603 Y138.195 E9.56369
G1 X109.033 Y137.453 E9.59481
G1 X108.854 Y137.208 E9.6049
G1 X108.287 Y136.387 E9.63808
G1 X106.754 Y134.227 E9.72618
G1 X105.138 Y132.081 E9.81553
G1 X103.348 Y129.843 E9.91085
G1 X101.759 Y127.916 E9.99392
G1 X101.662 Y127.795 E9.99908
G1 X101.328 Y127.368 E10.01711
G1 X99.601 Y125.284 E10.10713
G1 X97.879 Y123.324 E10.1939
G1 X96.043 Y121.347 E10.28364
G1 X94.184 Y119.456 E10.37184
G1 X92.96 Y118.27 E10.42853
G1 X92.849 Y118.16 E10.43372
G1 X92.753 Y118.062 E10.43829
G1 X92.298 Y117.54 E10.46132
G1 X91.905 Y116.969 E10.48437
G1 X91.582 Y116.357 E10.50739
G1 X91.331 Y115.711 E10.53044
G1 X91.106 Y114.757 E10.56304
G1 X91.016 Y114.16 E10.58312
G1 X90.971 Y113.775 E10.59601
G1 X90.885 Y112.765 E10.62973
G1 X90.871 Y112.564 E10.63643
G1 X90.86 Y112.35 E10.64356
G1 X90.852 Y112.042 E10.6538
G1 X90.852 Y111.159 E10.68317
G1 X90.855 Y110.974 E10.68933
G1 X90.863 Y110.714 E10.69798
G1 X90.882 Y110.389 E10.70881
G1 X90.968 Y109.381 E10.74245
G1 X91.038 Y108.845 E10.76043
G1 X91.256 Y107.614 E10.80201
G1 X91.345 Y107.197 E10.8162
G1 X91.437 Y106.831 E10.82875
G1 X91.477 Y106.679 E10.83397
G1 X91.593 Y106.264 E10.84831
G1 X91.729 Y105.839 E10.86315
G1 X92.041 Y104.976 E10.89367
G1 X92.143 Y104.714 E10.90302
G1 X92.234 Y104.495 E10.91091
G1 X92.413 Y104.105 E10.92518
G1 X92.786 Y103.362 E10.95283
G1 X93.01 Y102.956 E10.96826
G1 X93.382 Y102.339 E10.99222
G1 X93.678 Y101.893 E11.01002
G1 X94.063 Y101.367 E11.0317
G1 X94.2 Y101.187 E11.03923
G1 X94.348 Y101 E11.04716
G1 X94.566 Y100.741 E11.05842
G1 X94.906 Y100.358 E11.07545
G1 X95.22 Y100.03 E11.09055
G1 X95.471 Y99.787 E11.10217
G0 F3600 X95.749 Y100.075
G1 F1800 X95.848 Y99.981 E11.10671
G1 X96.015 Y99.827 E11.11427
G1 X96.188 Y99.674 E11.12195
G1 X96.386 Y99.506 E11.13059
G1 X96.56 Y99.364 E11.13806
G1 X96.844 Y99.142 E11.15005
G1 X97.095 Y98.957 E11.16042
G1 X97.325 Y98.797 E11.16974
G1 X97.528 Y98.662 E11.17785
G1 X98.002 Y98.362 E11.1965
G1 X98.294 Y98.19 E11.20777
G1 X98.655 Y97.991 E11.22148
G1 X99.051 Y97.792 E11.23623
G1 X99.551 Y97.566 E11.25448
G1 X99.899 Y97.423 E11.26699
G1 X100.689 Y97.128 E11.29504
G1 X101.115 Y96.988 E11.30995
