;FLAVOR:Marlin
;TIME:3128
;Filament used: 1.1633m
;Layer height: 0.15
;MINX:75.91
;MINY:104.042
;MINZ:0.2
;MAXX:156.23
;MAXY:130.391
;MAXZ:59
;Generated with Cura_SteamEngine 4.1.0
M140 S60
M105
M190 S60
M104 S200
M105
M109 S200
M82 ;absolute extrusion mode
; Ender 3 Custom Start G-code
G28 ; Home all axes
G92 E0 ; Reset Extruder
G1 Z2.0 F3000 ; Move Z Axis up little to prevent scratching of Heat Bed
G1 X0.1 Y20 Z0.3 F5000.0 ; Move to start position
G1 X0.1 Y200.0 Z0.3 F1500.0 E15 ; Draw the first line
G1 X0.4 Y200.0 Z0.3 F5000.0 ; Move to side a little
G1 X0.4 Y20 Z0.3 F1500.0 E30 ; Draw the second line
G92 E0 ; Reset Extruder
G1 Z2.0 F3000 ; Move Z Axis up little to prevent scratching of Heat Bed
; End of custom start GCode
G92 E0
G92 E0
G1 F2400 E-5
;LAYER_COUNT:393
;LAYER:0
M107
M204 S500
M205 X10 Y10
G0 F3600 X78.887 Y108.413 Z0.2
;TYPE:SKIRT
G1 F2400 E0
G1 F1800 X79.491 Y108.03 E0.02379
G1 X80.286 Y107.654 E0.05304
G1 X81.405 Y107.217 E0.09299
G1 X82.085 Y106.995 E0.11678
G1 X82.785 Y106.85 E0.14056
G1 X83.497 Y106.783 E0.16435
G1 X84.177 Y106.794 E0.18697
G1 X85.255 Y106.869 E0.22291
G1 X85.384 Y106.88 E0.22721
G1 X85.973 Y106.933 E0.24688
G1 X88.582 Y107.09 E0.33382
G1 X91.265 Y107.176 E0.4231
G1 X93.906 Y107.187 E0.51094
G1 X96.55 Y107.121 E0.59891
G1 X99.189 Y106.982 E0.6868
G1 X101.821 Y106.768 E0.77463
G1 X104.454 Y106.479 E0.86273
G1 X107.107 Y106.111 E0.95182
G1 X109.682 Y105.68 E1.03865
G1 X112.241 Y105.177 E1.12539
G1 X116.244 Y104.243 E1.26211
G1 X116.949 Y104.12 E1.28591
G1 X117.384 Y104.084 E1.30043
G1 X117.972 Y104.055 E1.32001
G1 X118.259 Y104.047 E1.32956
G1 X119.392 Y104.042 E1.36724
G1 X120.358 Y104.111 E1.39945
G1 X121.633 Y104.3 E1.44232
G1 X124.292 Y104.658 E1.53156
G1 X126.949 Y104.938 E1.62042
G1 X129.589 Y105.142 E1.70849
G1 X132.191 Y105.269 E1.79514
G1 X134.75 Y105.324 E1.88027
G1 X134.884 Y105.329 E1.88473
G1 X135.191 Y105.342 E1.89495
G1 X135.353 Y105.351 E1.90035
G1 X135.722 Y105.376 E1.91265
G1 X135.849 Y105.386 E1.91688
G1 X136.111 Y105.409 E1.92563
G1 X136.819 Y105.511 E1.94942
G1 X137.511 Y105.691 E1.97321
G1 X138.178 Y105.948 E1.99698
G1 X138.6 Y106.157 E2.01264
G1 X139.019 Y106.384 E2.02849
G1 X139.036 Y106.393 E2.02913
G1 X141.45 Y107.71 E2.12059
G1 X143.786 Y108.9 E2.20779
G1 X146.196 Y110.042 E2.29649
G1 X148.591 Y111.095 E2.38351
G1 X151.303 Y112.195 E2.48085
G1 X152.026 Y112.477 E2.50666
G1 X152.677 Y112.774 E2.53046
G1 X153.291 Y113.141 E2.55425
G1 X153.999 Y113.697 E2.58419
G1 X154.073 Y113.764 E2.58751
G1 X154.575 Y114.273 E2.61129
G1 X155.018 Y114.834 E2.63506
G1 X155.395 Y115.442 E2.65886
G1 X155.702 Y116.088 E2.68265
G1 X155.924 Y116.726 E2.70511
G1 X155.984 Y116.933 E2.71228
G1 X156.144 Y117.63 E2.73607
G1 X156.226 Y118.341 E2.75987
G1 X156.23 Y119.009 E2.78209
G1 X156.219 Y119.248 E2.79005
G1 X156.162 Y119.86 E2.81049
G1 X155.91 Y121.622 E2.86969
G1 X155.702 Y123.216 E2.92316
G1 X155.562 Y124.365 E2.96166
G1 X155.436 Y125.069 E2.98544
G1 X155.33 Y125.459 E2.99889
G1 X155.225 Y125.803 E3.01085
G1 X154.978 Y126.475 E3.03466
G1 X154.658 Y127.114 E3.05843
G1 X154.269 Y127.714 E3.08221
G1 X153.815 Y128.267 E3.10601
G1 X153.302 Y128.766 E3.12981
G1 X152.9 Y129.087 E3.14693
G1 X152.805 Y129.157 E3.15085
G1 X152.207 Y129.549 E3.17463
G1 X151.568 Y129.871 E3.19843
G1 X150.898 Y130.12 E3.2222
G1 X150.204 Y130.293 E3.24599
G1 X149.495 Y130.387 E3.26978
G1 X148.593 Y130.391 E3.29978
G1 X148.378 Y130.377 E3.30695
G1 X147.668 Y130.291 E3.33074
G1 X147.213 Y130.193 E3.34622
G1 X145.845 Y129.844 E3.39317
G1 X143.239 Y129.22 E3.4823
G1 X140.629 Y128.671 E3.57101
G1 X138.053 Y128.208 E3.65806
G1 X135.418 Y127.81 E3.74669
G1 X132.793 Y127.488 E3.83466
G1 X131.747 Y127.383 E3.86962
G1 X131.622 Y127.37 E3.8738
G1 X130.337 Y127.216 E3.91685
G1 X130.236 Y127.203 E3.92023
G1 X129.912 Y127.159 E3.93111
G1 X127.304 Y126.881 E4.01834
G1 X124.61 Y126.671 E4.10822
G1 X123.047 Y126.584 E4.16028
G1 X122.644 Y126.549 E4.17374
G1 X119.77 Y126.207 E4.27
G1 X117.189 Y125.975 E4.35619
G1 X113.128 Y125.755 E4.49146
G1 X112.857 Y125.746 E4.50048
G1 X111.867 Y125.636 E4.53361
G1 X109.227 Y125.133 E4.62299
G1 X106.67 Y124.718 E4.70915
G1 X103.129 Y124.262 E4.8279
G1 X97.937 Y123.691 E5.00163
G1 X95.285 Y123.436 E5.09024
G1 X91.504 Y123.202 E5.21624
G1 X91.285 Y123.184 E5.22355
G1 X90.726 Y123.13 E5.24222
G1 X88.058 Y122.91 E5.33126
G1 X85.377 Y122.763 E5.42057
G1 X83.812 Y122.723 E5.47264
G1 X83.711 Y122.719 E5.476
G1 X83.133 Y122.695 E5.49524
G1 X82.422 Y122.626 E5.519
G1 X81.722 Y122.477 E5.5428
G1 X81.043 Y122.252 E5.56659
G1 X80.394 Y121.952 E5.59037
G1 X79.782 Y121.581 E5.61418
G1 X79.216 Y121.144 E5.63796
G1 X78.939 Y120.891 E5.65044
G1 X78.483 Y120.448 E5.67158
G1 X78.318 Y120.282 E5.67937
G1 X77.921 Y119.867 E5.69847
G1 X77.457 Y119.323 E5.72225
G1 X77.055 Y118.731 E5.74605
G1 X76.661 Y117.958 E5.77491
G1 X76.42 Y117.394 E5.79531
G1 X76.176 Y116.721 E5.81912
G1 X76.009 Y116.026 E5.84289
G1 X75.92 Y115.316 E5.86669
G1 X75.91 Y114.622 E5.88978
G1 X75.927 Y114.199 E5.90386
G1 X75.996 Y113.487 E5.92765
G1 X76.133 Y112.827 E5.95007
G1 X76.228 Y112.466 E5.96248
G1 X76.498 Y111.661 E5.99072
G1 X76.695 Y111.182 E6.00795
G1 X77.004 Y110.536 E6.03177
G1 X77.382 Y109.93 E6.05552
G1 X77.826 Y109.369 E6.07932
G1 X78.33 Y108.861 E6.10312
G1 X78.887 Y108.413 E6.1269
G0 F3600 X79.21 Y108.675
G1 F1800 X79.802 Y108.316 E6.14992
G1 X80.431 Y108.027 E6.17295
G1 X81.55 Y107.59 E6.2129
G1 X82.209 Y107.376 E6.23595
G1 X82.888 Y107.239 E6.25899
G1 X83.578 Y107.181 E6.28202
G1 X84.149 Y107.193 E6.30101
G1 X85.227 Y107.268 E6.33695
G1 X85.348 Y107.278 E6.34099
G1 X85.946 Y107.332 E6.36096
G1 X88.582 Y107.49 E6.44879
G1 X91.25 Y107.576 E6.53758
G1 X93.913 Y107.587 E6.62615
G1 X96.546 Y107.521 E6.71375
G1 X99.242 Y107.379 E6.80354
G1 X101.86 Y107.167 E6.8909
G1 X104.521 Y106.874 E6.97994
G1 X107.122 Y106.514 E7.06728
G1 X109.795 Y106.066 E7.15742
G1 X112.32 Y105.57 E7.24301
G1 X116.335 Y104.633 E7.38014
G1 X117.018 Y104.515 E7.40319
G1 X117.403 Y104.483 E7.41604
G1 X117.991 Y104.454 E7.43562
G1 X118.261 Y104.447 E7.4446
G1 X119.394 Y104.442 E7.48229
G1 X120.299 Y104.507 E7.51247
G1 X121.588 Y104.698 E7.55581
G1 X124.233 Y105.054 E7.64457
G1 X126.909 Y105.336 E7.73407
G1 X129.54 Y105.54 E7.82184
G1 X132.201 Y105.67 E7.91045
G1 X134.741 Y105.724 E7.99495
G1 X134.867 Y105.728 E7.99914
G1 X135.174 Y105.741 E8.00936
G1 X135.326 Y105.75 E8.01443
G1 X135.695 Y105.775 E8.02673
G1 X135.814 Y105.784 E8.0307
G1 X136.076 Y105.807 E8.03945
G1 X136.761 Y105.907 E8.06247
G1 X137.43 Y106.086 E8.0855
G1 X138.074 Y106.34 E8.10853
G1 X138.409 Y106.508 E8.12099
G1 X138.828 Y106.735 E8.13684
G1 X138.844 Y106.744 E8.13745
G1 X141.256 Y108.06 E8.22884
G1 X143.626 Y109.267 E8.3173
G1 X146.014 Y110.399 E8.4052
G1 X148.446 Y111.468 E8.49356
G1 X151.156 Y112.568 E8.59083
G1 X151.881 Y112.85 E8.61671
G1 X152.511 Y113.138 E8.63975
G1 X153.103 Y113.497 E8.66278
G1 X153.73 Y113.993 E8.68937
G1 X153.804 Y114.06 E8.69269
G1 X154.29 Y114.554 E8.71573
G1 X154.715 Y115.1 E8.73875
G1 X155.075 Y115.692 E8.76179
G1 X155.364 Y116.321 E8.78482
G1 X155.54 Y116.838 E8.80298
G1 X155.6 Y117.045 E8.81015
G1 X155.754 Y117.72 E8.83318
G1 X155.829 Y118.408 E8.85619
G1 X155.831 Y118.991 E8.87559
G1 X155.82 Y119.23 E8.88354
G1 X155.766 Y119.803 E8.90269
G1 X155.524 Y121.492 E8.95944
G1 X155.516 Y121.557 E8.96161
G1 X155.514 Y121.565 E8.96189
G1 X155.299 Y123.218 E9.01733
G1 X155.165 Y124.317 E9.05415
G1 X155.042 Y124.998 E9.07717
G1 X154.948 Y125.343 E9.08906
G1 X154.843 Y125.687 E9.10103
G1 X154.603 Y126.336 E9.12404
G1 X154.289 Y126.954 E9.1471
G1 X153.907 Y127.531 E9.17011
G1 X153.46 Y128.061 E9.19317
G1 X152.956 Y128.535 E9.21618
G1 X152.663 Y128.765 E9.22857
G1 X152.568 Y128.835 E9.2325
G1 X151.988 Y129.213 E9.25552
G1 X151.368 Y129.522 E9.27856
G1 X150.716 Y129.757 E9.30162
G1 X150.042 Y129.915 E9.32464
G1 X149.354 Y129.995 E9.34768
G1 X148.619 Y129.992 E9.37212
G1 X148.404 Y129.978 E9.37929
G1 X147.717 Y129.894 E9.40231
G1 X147.311 Y129.805 E9.41613
G1 X145.956 Y129.459 E9.46265
G1 X143.336 Y128.832 E9.55225
G1 X140.685 Y128.274 E9.64236
G1 X138.147 Y127.818 E9.72812
G1 X135.455 Y127.411 E9.81867
G1 X132.842 Y127.091 E9.90623
G1 X131.786 Y126.985 E9.94153
G1 X131.67 Y126.972 E9.94541
G1 X130.385 Y126.818 E9.98846
G1 X130.29 Y126.806 E9.99164
G1 X129.976 Y126.763 E10.00219
G1 X127.341 Y126.482 E10.09032
G1 X124.663 Y126.273 E10.17966
G1 X123.069 Y126.185 E10.23276
G1 X122.691 Y126.152 E10.24538
G1 X119.82 Y125.81 E10.34155
G1 X117.19 Y125.574 E10.42937
G1 X113.161 Y125.355 E10.56358
G1 X112.87 Y125.346 E10.57326
G1 X111.942 Y125.243 E10.60431
G1 X109.33 Y124.745 E10.69275
G1 X106.694 Y124.318 E10.78157
G1 X103.168 Y123.863 E10.89982
G1 X98.022 Y123.297 E11.07201
G1 X95.318 Y123.038 E11.16235
G1 X91.529 Y122.803 E11.28862
G1 X91.323 Y122.786 E11.29549
G1 X90.795 Y122.735 E11.31314
G1 X88.043 Y122.508 E11.40498
G1 X85.408 Y122.364 E11.49275
G1 X83.822 Y122.323 E11.54552
G1 X83.728 Y122.32 E11.54865
G1 X83.15 Y122.296 E11.56789
G1 X82.461 Y122.227 E11.59092
G1 X81.784 Y122.08 E11.61396
G1 X81.129 Y121.855 E11.637
G1 X80.504 Y121.557 E11.66003
G1 X79.918 Y121.188 E11.68306
G1 X79.218 Y120.605 E11.71336
G1 X78.762 Y120.162 E11.7345
G1 X78.607 Y120.006 E11.74182
G1 X78.21 Y119.591 E11.76092
G1 X77.761 Y119.063 E11.78397
G1 X77.376 Y118.488 E11.80699
G1 X77.029 Y117.801 E11.83259
G1 X76.788 Y117.237 E11.85299
G1 X76.553 Y116.585 E11.87604
G1 X76.394 Y115.911 E11.89907
G1 X76.315 Y115.223 E11.9221
G1 X76.31 Y114.638 E11.94156
G1 X76.327 Y114.215 E11.95564
G1 X76.395 Y113.526 E11.97867
G1 X76.52 Y112.929 E11.99896
G1 X76.615 Y112.568 E12.01137
G1 X76.868 Y111.813 E12.03785
G1 X77.065 Y111.334 E12.05508
G1 X77.365 Y110.71 E12.07811
G1 X77.735 Y110.124 E12.10116
G1 X78.17 Y109.585 E12.1242
G1 X78.664 Y109.1 E12.14722
G1 X79.21 Y108.675 E12.17024
G0 F3600 X79.531 Y108.941
G1 F1800 X80.111 Y108.607 E12.1925
G1 X80.577 Y108.4 E12.20946
G1 X81.696 Y107.963 E12.24941
G1 X82.332 Y107.757 E12.27165
G1 X82.989 Y107.629 E12.29391
G1 X83.656 Y107.58 E12.31615
G1 X84.122 Y107.593 E12.33166
G1 X85.2 Y107.668 E12.3676
G1 X85.312 Y107.676 E12.37133
G1 X85.919 Y107.731 E12.39161
G1 X88.581 Y107.891 E12.4803
G1 X91.236 Y107.976 E12.56866
G1 X93.922 Y107.987 E12.65799
G1 X96.576 Y107.921 E12.74629
G1 X99.227 Y107.781 E12.83459
G1 X101.935 Y107.561 E12.92495
G1 X104.548 Y107.274 E13.01238
G1 X107.206 Y106.906 E13.10163
G1 X109.832 Y106.466 E13.19019
G1 X112.431 Y105.955 E13.27829
G1 X116.426 Y105.023 E13.41473
G1 X117.086 Y104.91 E13.437
G1 X117.423 Y104.883 E13.44825
G1 X118.011 Y104.854 E13.46783
G1 X118.262 Y104.847 E13.47618
G1 X119.395 Y104.842 E13.51386
G1 X120.241 Y104.902 E13.54207
G1 X121.557 Y105.097 E13.58632
G1 X124.205 Y105.453 E13.67519
G1 X126.872 Y105.735 E13.76439
G1 X129.526 Y105.94 E13.85292
G1 X132.172 Y106.069 E13.94103
G1 X134.733 Y106.124 E14.02623
G1 X134.85 Y106.128 E14.03012
G1 X135.157 Y106.141 E14.04034
G1 X135.299 Y106.149 E14.04508
G1 X135.668 Y106.174 E14.05738
G1 X135.779 Y106.182 E14.06108
G1 X136.041 Y106.205 E14.06983
G1 X136.703 Y106.304 E14.09209
G1 X137.348 Y106.48 E14.11433
G1 X138.219 Y106.86 E14.14593
G1 X138.638 Y107.087 E14.16178
G1 X138.653 Y107.095 E14.16235
G1 X141.089 Y108.425 E14.25466
G1 X143.438 Y109.62 E14.34232
G1 X145.846 Y110.762 E14.43096
G1 X148.313 Y111.847 E14.52059
G1 X150.984 Y112.93 E14.61646
G1 X151.736 Y113.223 E14.6433
G1 X152.343 Y113.503 E14.66553
G1 X152.914 Y113.853 E14.68781
G1 X153.462 Y114.29 E14.71112
G1 X153.536 Y114.357 E14.71444
G1 X154.004 Y114.835 E14.73669
G1 X154.412 Y115.365 E14.75894
G1 X154.753 Y115.94 E14.78117
G1 X155.024 Y116.552 E14.80343
G1 X155.156 Y116.949 E14.81735
G1 X155.216 Y117.156 E14.82452
G1 X155.363 Y117.809 E14.84678
G1 X155.432 Y118.474 E14.86902
G1 X155.431 Y118.972 E14.88558
G1 X155.42 Y119.211 E14.89354
G1 X155.37 Y119.747 E14.91144
G1 X155.118 Y121.509 E14.97064
G1 X154.902 Y123.166 E15.02622
G1 X154.768 Y124.268 E15.06314
G1 X154.565 Y125.226 E15.09571
G1 X154.46 Y125.57 E15.10768
G1 X154.227 Y126.197 E15.12992
G1 X153.921 Y126.792 E15.15218
G1 X153.546 Y127.346 E15.17443
G1 X153.107 Y127.851 E15.19668
G1 X152.426 Y128.443 E15.2267
G1 X152.331 Y128.513 E15.23062
G1 X151.77 Y128.877 E15.25286
G1 X151.169 Y129.172 E15.27513
G1 X150.537 Y129.392 E15.29739
G1 X149.884 Y129.536 E15.31963
G1 X149.218 Y129.601 E15.34189
G1 X148.645 Y129.593 E15.36095
G1 X148.43 Y129.579 E15.36811
G1 X147.766 Y129.496 E15.39037
G1 X147.41 Y129.417 E15.4025
G1 X146.083 Y129.079 E15.44804
G1 X143.405 Y128.437 E15.53964
G1 X140.804 Y127.89 E15.62804
G1 X138.165 Y127.416 E15.71722
G1 X135.527 Y127.017 E15.80595
G1 X132.887 Y126.693 E15.89442
G1 X131.826 Y126.587 E15.92988
G1 X131.718 Y126.575 E15.9335
G1 X130.433 Y126.421 E15.97654
G1 X130.344 Y126.41 E15.97953
G1 X130.002 Y126.363 E15.99101
G1 X127.382 Y126.084 E16.07864
G1 X124.672 Y125.873 E16.16905
G1 X123.091 Y125.785 E16.22172
G1 X122.739 Y125.755 E16.23347
G1 X119.871 Y125.413 E16.32953
G1 X117.219 Y125.175 E16.41809
G1 X113.15 Y124.955 E16.55363
G1 X112.883 Y124.946 E16.56251
G1 X112.017 Y124.85 E16.59149
G1 X109.397 Y124.351 E16.6802
G1 X106.744 Y123.92 E16.76959
G1 X103.219 Y123.466 E16.88781
G1 X98.021 Y122.894 E17.06174
G1 X95.353 Y122.638 E17.15088
G1 X91.554 Y122.403 E17.27748
G1 X91.362 Y122.388 E17.28388
G1 X90.797 Y122.333 E17.30276
G1 X88.098 Y122.11 E17.39284
G1 X85.405 Y121.964 E17.48254
G1 X83.833 Y121.923 E17.53484
G1 X83.745 Y121.92 E17.53777
G1 X83.167 Y121.896 E17.55701
G1 X82.501 Y121.829 E17.57928
G1 X81.848 Y121.682 E17.60154
G1 X81.218 Y121.459 E17.62377
G1 X80.618 Y121.162 E17.64603
G1 X80.058 Y120.795 E17.6683
G1 X79.497 Y120.318 E17.69279
G1 X79.041 Y119.875 E17.71394
G1 X78.896 Y119.729 E17.72078
G1 X78.499 Y119.314 E17.73988
G1 X78.067 Y118.804 E17.76211
G1 X77.698 Y118.246 E17.78436
G1 X77.396 Y117.643 E17.8068
G1 X77.155 Y117.079 E17.82719
G1 X76.93 Y116.45 E17.84941
G1 X76.781 Y115.797 E17.87169
G1 X76.711 Y115.132 E17.89393
G1 X76.71 Y114.654 E17.90983
G1 X76.727 Y114.231 E17.92391
G1 X76.793 Y113.565 E17.94617
G1 X76.906 Y113.031 E17.96432
G1 X77.001 Y112.67 E17.97674
G1 X77.238 Y111.965 E18.00148
G1 X77.435 Y111.486 E18.0187
G1 X77.726 Y110.884 E18.04094
G1 X78.087 Y110.32 E18.06322
G1 X78.512 Y109.804 E18.08545
G1 X78.996 Y109.342 E18.1077
G1 X79.531 Y108.941 E18.12994
G0 F3600 X79.85 Y109.211
G1 F1800 X80.417 Y108.903 E18.1514
G1 X80.722 Y108.772 E18.16244
G1 X81.841 Y108.335 E18.2024
G1 X82.455 Y108.138 E18.22385
G1 X83.089 Y108.019 E18.2453
G1 X83.732 Y107.979 E18.26673
G1 X84.094 Y107.992 E18.27878
G1 X85.172 Y108.067 E18.31472
G1 X85.276 Y108.075 E18.31819
G1 X85.859 Y108.127 E18.33765
G1 X88.58 Y108.291 E18.42832
G1 X91.221 Y108.376 E18.51621
G1 X93.93 Y108.387 E18.60631
G1 X96.571 Y108.321 E18.69418
G1 X99.279 Y108.179 E18.78437
G1 X101.944 Y107.962 E18.8733
G1 X104.61 Y107.669 E18.9625
G1 X107.256 Y107.303 E19.05135
G1 X109.938 Y106.854 E19.14179
G1 X112.488 Y106.352 E19.22823
G1 X116.517 Y105.412 E19.36584
G1 X117.443 Y105.282 E19.39694
G1 X118.031 Y105.253 E19.41652
G1 X118.264 Y105.247 E19.42427
G1 X119.397 Y105.242 E19.46196
G1 X120.182 Y105.298 E19.48813
G1 X121.445 Y105.485 E19.5306
G1 X124.181 Y105.853 E19.62242
G1 X126.8 Y106.13 E19.71001
G1 X129.509 Y106.339 E19.80038
G1 X132.181 Y106.47 E19.88936
G1 X134.724 Y106.524 E19.97396
G1 X134.833 Y106.528 E19.97759
G1 X135.14 Y106.541 E19.98781
G1 X135.271 Y106.548 E19.99217
G1 X135.64 Y106.573 E20.00447
G1 X135.744 Y106.581 E20.00794
G1 X136.006 Y106.604 E20.01669
G1 X136.643 Y106.7 E20.03811
G1 X137.264 Y106.874 E20.05956
