;FLAVOR:Marlin
;TIME:4391
;Filament used: 5.67784m
;Layer height: 0.3
;MINX:45.069
;MINY:101.6
;MINZ:0.2
;MAXX:186.393
;MAXY:182.645
;MAXZ:9.8
;Generated with Cura_SteamEngine 4.1.0
M140 S60
M105
M190 S60
M104 S200
M105
M109 S200
M82 ;absolute extrusion mode
; Ender 3 Custom Start G-code
G28 ; Home all axes
G92 E0 ; Reset Extruder
G1 Z2.0 F3000 ; Move Z Axis up little to prevent scratching of Heat Bed
G1 X0.1 Y20 Z0.3 F5000.0 ; Move to start position
G1 X0.1 Y200.0 Z0.3 F1500.0 E15 ; Draw the first line
G1 X0.4 Y200.0 Z0.3 F5000.0 ; Move to side a little
G1 X0.4 Y20 Z0.3 F1500.0 E30 ; Draw the second line
G92 E0 ; Reset Extruder
G1 Z2.0 F3000 ; Move Z Axis up little to prevent scratching of Heat Bed
; End of custom start GCode
G92 E0
G92 E0
G1 F2400 E-5
;LAYER_COUNT:33
;LAYER:0
M107
M204 S500
M205 X10 Y10
G0 F3600 X53.26 Y102.234 Z0.2
;TYPE:SKIRT
G1 F2400 E0
G1 F1800 X53.923 Y101.966 E0.02378
G1 X54.612 Y101.773 E0.04758
G1 X55.318 Y101.658 E0.07137
G1 X55.676 Y101.631 E0.08332
G1 X55.961 Y101.617 E0.09281
G1 X56.226 Y101.609 E0.10162
G1 X57.412 Y101.6 E0.14107
G1 X178.293 Y101.6 E4.16159
G1 X178.384 Y101.601 E4.16462
G1 X179.085 Y101.611 E4.18793
G1 X179.799 Y101.661 E4.21174
G1 X180.502 Y101.79 E4.23551
G1 X181.187 Y101.997 E4.25931
G1 X181.844 Y102.28 E4.28311
G1 X182.466 Y102.633 E4.30689
G1 X183.044 Y103.054 E4.33068
G1 X183.331 Y103.304 E4.34334
G1 X183.484 Y103.445 E4.35026
G1 X183.647 Y103.6 E4.35774
G1 X184.004 Y103.953 E4.37444
G1 X184.092 Y104.042 E4.3786
G1 X184.554 Y104.517 E4.40064
G1 X185.023 Y105.057 E4.42443
G1 X185.429 Y105.645 E4.44819
G1 X185.767 Y106.276 E4.472
G1 X186.032 Y106.94 E4.49578
G1 X186.222 Y107.63 E4.51958
G1 X186.334 Y108.336 E4.54336
G1 X186.363 Y108.791 E4.55852
G1 X186.39 Y109.708 E4.58904
G1 X186.393 Y109.926 E4.59629
G1 X186.391 Y110.351 E4.61042
G1 X186.352 Y111.031 E4.63308
G1 X186.296 Y111.533 E4.64988
G1 X186.271 Y111.726 E4.65635
G1 X186.196 Y112.252 E4.67402
G1 X186.001 Y113.151 E4.70462
G1 X185.876 Y113.577 E4.71938
G1 X185.849 Y113.667 E4.72251
G1 X185.306 Y115.422 E4.78361
G1 X184.592 Y117.981 E4.87197
G1 X183.959 Y120.528 E4.95926
G1 X183.379 Y123.173 E5.04933
G1 X182.899 Y125.719 E5.1355
G1 X182.479 Y128.344 E5.22392
G1 X182.134 Y130.969 E5.31198
G1 X181.86 Y133.641 E5.40131
G1 X181.667 Y136.24 E5.488
G1 X181.547 Y138.879 E5.57586
G1 X181.501 Y141.516 E5.66358
G1 X181.529 Y144.2 E5.75285
G1 X181.633 Y146.84 E5.84073
G1 X181.809 Y149.447 E5.92764
G1 X182.064 Y152.108 E6.01655
G1 X182.389 Y154.712 E6.10383
G1 X182.568 Y155.83 E6.14149
G1 X182.586 Y155.952 E6.14559
G1 X182.767 Y157.244 E6.18898
G1 X182.826 Y157.948 E6.21248
G1 X182.855 Y158.957 E6.24605
G1 X182.858 Y159.17 E6.25314
G1 X182.856 Y159.607 E6.26767
G1 X182.814 Y160.306 E6.29096
G1 X182.758 Y160.795 E6.30733
G1 X182.734 Y160.982 E6.3136
G1 X182.659 Y161.501 E6.33104
G1 X182.518 Y162.202 E6.35483
G1 X182.286 Y162.916 E6.3798
G1 X182.053 Y163.512 E6.40108
G1 X181.979 Y163.692 E6.40755
G1 X181.82 Y164.065 E6.42104
G1 X181.504 Y164.706 E6.44481
G1 X181.084 Y165.354 E6.47049
G1 X180.713 Y165.857 E6.49128
G1 X180.607 Y165.997 E6.49712
G1 X180.347 Y166.33 E6.51117
G1 X180.011 Y166.726 E6.52845
G1 X179.872 Y166.877 E6.53527
G1 X179.739 Y167.016 E6.54167
G1 X179.521 Y167.239 E6.55204
G1 X179.471 Y167.29 E6.55442
G1 X167.656 Y179.106 E7.11018
G1 X167.59 Y179.171 E7.11326
G1 X167.095 Y179.652 E7.13622
G1 X166.688 Y180.015 E7.15436
G1 X166.501 Y180.168 E7.1624
G1 X166.297 Y180.328 E7.17102
G1 X165.674 Y180.797 E7.19696
G1 X165.08 Y181.195 E7.22074
G1 X164.388 Y181.549 E7.24659
G1 X163.825 Y181.795 E7.26702
G1 X163.644 Y181.87 E7.27354
G1 X163.265 Y182.022 E7.28712
G1 X162.588 Y182.251 E7.31089
G1 X161.853 Y182.408 E7.33589
G1 X161.181 Y182.511 E7.3585
G1 X160.97 Y182.54 E7.36559
G1 X160.568 Y182.588 E7.37905
G1 X160.055 Y182.628 E7.39617
G1 X159.847 Y182.636 E7.40309
G1 X159.628 Y182.641 E7.41038
G1 X158.929 Y182.644 E7.43362
G1 X158.824 Y182.644 E7.43712
G1 X158.168 Y182.636 E7.45894
G1 X157.716 Y182.614 E7.47399
G1 X155.026 Y182.391 E7.56376
G1 X152.411 Y182.246 E7.65087
G1 X149.73 Y182.173 E7.74008
G1 X147.087 Y182.177 E7.82798
G1 X144.449 Y182.254 E7.91576
G1 X141.794 Y182.409 E8.00422
G1 X139.379 Y182.612 E8.08482
G1 X138.842 Y182.635 E8.1027
G1 X138.279 Y182.635 E8.12143
G1 X137.912 Y182.624 E8.13364
G1 X135.032 Y182.458 E8.22959
G1 X132.402 Y182.384 E8.3171
G1 X129.724 Y182.384 E8.40617
G1 X127.12 Y182.458 E8.49281
G1 X124.282 Y182.619 E8.58735
G1 X124.079 Y182.627 E8.59411
G1 X123.72 Y182.636 E8.60606
G1 X123.471 Y182.637 E8.61434
G1 X123.256 Y182.634 E8.62149
G1 X123.05 Y182.628 E8.62834
G1 X121.766 Y182.569 E8.67109
G1 X119.069 Y182.487 E8.76084
G1 X116.423 Y182.48 E8.84885
G1 X113.732 Y182.55 E8.93838
G1 X112.146 Y182.627 E8.99119
G1 X112.031 Y182.632 E8.99502
G1 X111.704 Y182.642 E9.0059
G1 X111.508 Y182.645 E9.01242
G1 X108.198 Y182.645 E9.12251
G1 X108.106 Y182.644 E9.12557
G1 X107.408 Y182.634 E9.14879
G1 X106.737 Y182.589 E9.17116
G1 X106.553 Y182.567 E9.17732
G1 X103.833 Y182.258 E9.26837
G1 X101.206 Y182.036 E9.35606
G1 X98.567 Y181.887 E9.44397
G1 X95.888 Y181.812 E9.53311
G1 X93.245 Y181.812 E9.62101
G1 X90.64 Y181.887 E9.70769
G1 X87.96 Y182.039 E9.79697
G1 X85.359 Y182.261 E9.8838
G1 X83.861 Y182.442 E9.93398
G1 X83.757 Y182.453 E9.93746
G1 X82.435 Y182.591 E9.98167
G1 X81.891 Y182.625 E9.9998
G1 X80.88 Y182.644 E10.03343
G1 X80.76 Y182.645 E10.03742
G1 X80.296 Y182.645 E10.05286
G1 X80.201 Y182.644 E10.05602
G1 X79.529 Y182.634 E10.07837
G1 X79.166 Y182.619 E10.09045
G1 X78.427 Y182.566 E10.1151
G1 X78.235 Y182.549 E10.12151
G1 X77.569 Y182.481 E10.14377
G1 X76.663 Y182.322 E10.17437
G1 X75.889 Y182.128 E10.20091
G1 X75.71 Y182.08 E10.20707
G1 X75.149 Y181.922 E10.22646
G1 X74.267 Y181.603 E10.25765
G1 X73.546 Y181.28 E10.28393
G1 X73.386 Y181.205 E10.2898
G1 X72.84 Y180.942 E10.30996
G1 X72.499 Y180.765 E10.32274
G1 X71.816 Y180.384 E10.34875
G1 X71.734 Y180.338 E10.35188
G1 X50.741 Y168.219 E11.1581
G1 X50.623 Y168.149 E11.16267
G1 X50.242 Y167.918 E11.17749
G1 X49.761 Y167.595 E11.19676
G1 X49.071 Y167.086 E11.22528
G1 X48.916 Y166.968 E11.23175
G1 X48.706 Y166.803 E11.24064
G1 X48.169 Y166.331 E11.26442
G1 X47.651 Y165.755 E11.29018
G1 X47.262 Y165.266 E11.31096
G1 X47.134 Y165.1 E11.31794
G1 X46.888 Y164.769 E11.33165
G1 X46.494 Y164.172 E11.35544
G1 X46.156 Y163.504 E11.38034
G1 X45.888 Y162.888 E11.40269
G1 X45.809 Y162.697 E11.40956
G1 X45.672 Y162.352 E11.42191
G1 X45.445 Y161.674 E11.44569
G1 X45.293 Y160.957 E11.47007
G1 X45.203 Y160.368 E11.48988
G1 X45.174 Y160.152 E11.49713
G1 X45.122 Y159.712 E11.51187
G1 X45.084 Y159.237 E11.52772
G1 X45.074 Y159.005 E11.53544
G1 X45.069 Y158.633 E11.54782
G1 X45.076 Y158.167 E11.56332
G1 X45.126 Y157.453 E11.58712
G1 X45.349 Y156.409 E11.62263
G1 X45.576 Y155.659 E11.64869
G1 X45.609 Y155.553 E11.65238
G1 X45.991 Y154.366 E11.69386
G1 X46.718 Y151.863 E11.78055
G1 X47.394 Y149.261 E11.86996
G1 X47.979 Y146.716 E11.95682
G1 X48.512 Y144.066 E12.04672
G1 X48.95 Y141.491 E12.1336
G1 X49.322 Y138.879 E12.22135
G1 X49.621 Y136.246 E12.30949
G1 X49.843 Y133.619 E12.39717
G1 X49.993 Y130.973 E12.48532
G1 X50.068 Y128.3 E12.57426
G1 X50.068 Y125.642 E12.66267
G1 X49.993 Y123.045 E12.74908
G1 X49.842 Y120.374 E12.83806
G1 X49.618 Y117.742 E12.92592
G1 X49.315 Y115.087 E13.01479
G1 X49.025 Y113.012 E13.08448
G1 X48.735 Y111.098 E13.14887
G1 X48.708 Y110.9 E13.15551
G1 X48.657 Y110.474 E13.16978
G1 X48.617 Y109.963 E13.18683
G1 X48.608 Y109.733 E13.19449
G1 X48.604 Y109.387 E13.206
G1 X48.611 Y108.921 E13.2215
G1 X48.661 Y108.207 E13.2453
G1 X48.791 Y107.504 E13.26908
G1 X48.999 Y106.82 E13.29286
G1 X49.282 Y106.163 E13.31665
G1 X49.636 Y105.541 E13.34046
G1 X50.283 Y104.703 E13.37567
G1 X50.471 Y104.497 E13.38494
G1 X50.636 Y104.323 E13.39292
G1 X50.938 Y104.016 E13.40724
G1 X51.017 Y103.937 E13.41096
G1 X51.507 Y103.456 E13.4338
G1 X52.044 Y102.984 E13.45758
G1 X52.631 Y102.575 E13.48137
G1 X53.26 Y102.234 E13.50517
G0 F3600 X53.491 Y102.568
G1 F1800 X54.136 Y102.317 E13.52819
G1 X54.806 Y102.141 E13.55123
G1 X55.696 Y102.03 E13.58106
G1 X55.981 Y102.016 E13.59055
G1 X56.229 Y102.009 E13.5988
G1 X57.415 Y102 E13.63825
G1 X178.293 Y102 E17.65867
G1 X178.379 Y102.001 E17.66153
G1 X179.08 Y102.011 E17.68485
G1 X179.77 Y102.06 E17.70785
G1 X180.451 Y102.19 E17.73091
G1 X181.112 Y102.396 E17.75394
G1 X181.744 Y102.678 E17.77696
G1 X182.341 Y103.03 E17.80001
G1 X183.06 Y103.598 E17.83049
G1 X183.213 Y103.739 E17.83741
G1 X183.366 Y103.885 E17.84444
G1 X183.723 Y104.238 E17.86114
G1 X183.805 Y104.321 E17.86502
G1 X184.267 Y104.796 E17.88706
G1 X184.72 Y105.319 E17.91007
G1 X185.111 Y105.891 E17.93312
G1 X185.432 Y106.505 E17.95616
G1 X185.681 Y107.151 E17.97919
G1 X185.853 Y107.822 E18.00223
G1 X185.963 Y108.802 E18.03502
G1 X185.99 Y109.719 E18.06554
G1 X185.993 Y109.924 E18.07236
G1 X185.991 Y110.349 E18.08649
G1 X185.954 Y110.986 E18.10771
G1 X185.898 Y111.488 E18.12451
G1 X185.875 Y111.67 E18.13062
G1 X185.8 Y112.196 E18.14829
G1 X185.617 Y113.038 E18.17695
G1 X185.492 Y113.464 E18.19171
G1 X185.467 Y113.549 E18.19466
G1 X184.914 Y115.335 E18.25685
G1 X184.21 Y117.858 E18.34397
G1 X183.566 Y120.451 E18.43283
G1 X182.99 Y123.078 E18.52228
G1 X182.504 Y125.654 E18.60947
G1 X182.081 Y128.301 E18.69863
G1 X181.738 Y130.913 E18.78625
G1 X181.465 Y133.572 E18.87515
G1 X181.268 Y136.226 E18.96367
G1 X181.146 Y138.889 E19.05233
G1 X181.101 Y141.516 E19.13972
G1 X181.129 Y144.22 E19.22966
G1 X181.233 Y146.847 E19.3171
G1 X181.409 Y149.458 E19.40414
G1 X181.667 Y152.155 E19.49425
G1 X181.993 Y154.768 E19.58183
G1 X182.173 Y155.893 E19.61973
G1 X182.19 Y156.008 E19.62359
G1 X182.371 Y157.3 E19.66699
G1 X182.427 Y157.96 E19.68902
G1 X182.456 Y158.969 E19.72259
G1 X182.458 Y159.168 E19.72921
G1 X182.456 Y159.605 E19.74374
G1 X182.417 Y160.261 E19.7656
G1 X182.361 Y160.75 E19.78197
G1 X182.338 Y160.925 E19.78784
G1 X182.263 Y161.444 E19.80528
G1 X182.125 Y162.123 E19.82833
G1 X181.913 Y162.771 E19.85101
G1 X181.68 Y163.367 E19.87229
G1 X181.611 Y163.535 E19.87833
G1 X181.452 Y163.908 E19.89182
G1 X181.145 Y164.528 E19.91483
G1 X180.762 Y165.116 E19.93817
G1 X180.391 Y165.619 E19.95896
G1 X180.291 Y165.75 E19.96444
G1 X180.031 Y166.083 E19.97849
G1 X179.716 Y166.455 E19.9947
G1 X179.577 Y166.606 E20.00153
G1 X179.453 Y166.736 E20.0075
G1 X179.235 Y166.959 E20.01788
G1 X179.188 Y167.007 E20.02011
G1 X167.373 Y178.823 E20.57587
G1 X167.311 Y178.884 E20.57877
G1 X166.816 Y179.365 E20.60172
G1 X166.434 Y179.706 E20.61876
G1 X166.247 Y179.859 E20.62679
G1 X166.057 Y180.009 E20.63484
G1 X165.434 Y180.478 E20.66078
G1 X164.857 Y180.861 E20.68381
G1 X164.227 Y181.182 E20.70733
G1 X163.664 Y181.428 E20.72777
G1 X163.495 Y181.499 E20.73386
G1 X163.116 Y181.651 E20.74744
G1 X162.46 Y181.871 E20.77046
G1 X161.792 Y182.013 E20.79317
G1 X161.12 Y182.116 E20.81578
G1 X160.922 Y182.143 E20.82243
G1 X160.52 Y182.191 E20.83589
G1 X160.04 Y182.229 E20.85191
G1 X159.832 Y182.237 E20.85883
G1 X159.627 Y182.241 E20.86565
G1 X158.928 Y182.244 E20.8889
G1 X158.829 Y182.244 E20.89219
G1 X158.173 Y182.236 E20.91401
G1 X157.75 Y182.215 E20.9281
G1 X155.084 Y181.994 E21.01708
G1 X152.408 Y181.846 E21.10622
G1 X149.74 Y181.773 E21.19499
G1 X147.074 Y181.777 E21.28366
G1 X144.449 Y181.854 E21.371
G1 X141.777 Y182.009 E21.46003
G1 X139.346 Y182.214 E21.54117
G1 X138.842 Y182.235 E21.55795
G1 X138.279 Y182.235 E21.57667
G1 X137.935 Y182.225 E21.58812
G1 X135.066 Y182.06 E21.6837
G1 X132.378 Y181.984 E21.77314
G1 X129.748 Y181.984 E21.86061
G1 X127.05 Y182.06 E21.95038
G1 X124.259 Y182.219 E22.04336
G1 X124.069 Y182.227 E22.04969
G1 X123.71 Y182.236 E22.06163
G1 X123.476 Y182.237 E22.06941
G1 X123.261 Y182.234 E22.07657
G1 X123.069 Y182.229 E22.08295
G1 X121.733 Y182.167 E22.12744
G1 X119.084 Y182.087 E22.21558
G1 X116.414 Y182.08 E22.30439
G1 X113.746 Y182.149 E22.39316
G1 X112.127 Y182.228 E22.44707
G1 X112.018 Y182.232 E22.4507
G1 X111.691 Y182.242 E22.46158
G1 X111.508 Y182.245 E22.46766
G1 X108.198 Y182.245 E22.57776
G1 X108.112 Y182.244 E22.58062
G1 X107.414 Y182.234 E22.60383
G1 X106.785 Y182.192 E22.6248
G1 X106.598 Y182.17 E22.63106
G1 X103.878 Y181.861 E22.72211
G1 X101.19 Y181.633 E22.81184
G1 X98.599 Y181.487 E22.89815
G1 X95.899 Y181.412 E22.98799
G1 X93.269 Y181.412 E23.07546
G1 X90.572 Y181.489 E23.1652
G1 X87.937 Y181.639 E23.25298
G1 X85.333 Y181.861 E23.33991
G1 X83.813 Y182.045 E23.39083
G1 X83.716 Y182.056 E23.39408
G1 X82.394 Y182.194 E23.43829
G1 X81.884 Y182.225 E23.45528
G1 X80.873 Y182.244 E23.48891
G1 X80.76 Y182.245 E23.49267
G1 X80.296 Y182.245 E23.50811
G1 X80.207 Y182.244 E23.51107
G1 X79.535 Y182.234 E23.53342
G1 X79.195 Y182.22 E23.54474
G1 X78.456 Y182.167 E23.56938
G1 X78.276 Y182.151 E23.57539
G1 X77.61 Y182.083 E23.59766
G1 X76.76 Y181.934 E23.62636
G1 X75.986 Y181.74 E23.6529
G1 X75.818 Y181.695 E23.65868
G1 X75.257 Y181.537 E23.67807
G1 X74.431 Y181.238 E23.70728
G1 X73.71 Y180.915 E23.73356
G1 X73.559 Y180.845 E23.7391
G1 X73.013 Y180.582 E23.75925
G1 X72.694 Y180.416 E23.77122
G1 X72.011 Y180.035 E23.79723
G1 X71.934 Y179.991 E23.80018
G1 X50.941 Y167.872 E24.6064
G1 X50.83 Y167.807 E24.61068
G1 X50.449 Y167.576 E24.6255
G1 X49.998 Y167.273 E24.64357
G1 X49.308 Y166.764 E24.67209
G1 X49.163 Y166.654 E24.67814
G1 X48.953 Y166.489 E24.68702
G1 X48.434 Y166.03 E24.71007
G1 X47.964 Y165.506 E24.73348
G1 X47.575 Y165.017 E24.75426
G1 X47.455 Y164.861 E24.76081
G1 X47.209 Y164.53 E24.77453
G1 X46.829 Y163.951 E24.79756
G1 X46.523 Y163.345 E24.82014
G1 X46.255 Y162.729 E24.84248
G1 X46.181 Y162.549 E24.84896
G1 X46.044 Y162.204 E24.8613
G1 X45.826 Y161.547 E24.88433
G1 X45.689 Y160.896 E24.90645
G1 X45.599 Y160.307 E24.92627
G1 X45.571 Y160.105 E24.93305
G1 X45.519 Y159.665 E24.94779
G1 X45.484 Y159.219 E24.96267
G1 X45.474 Y158.987 E24.97039
G1 X45.469 Y158.639 E24.98197
G1 X45.476 Y158.173 E24.99747
G1 X45.526 Y157.482 E25.02051
G1 X45.732 Y156.525 E25.05307
G1 X45.959 Y155.775 E25.07913
G1 X45.99 Y155.676 E25.08258
G1 X46.367 Y154.505 E25.1235
G1 X47.115 Y151.928 E25.21275
G1 X47.777 Y149.379 E25.30034
G1 X48.375 Y146.779 E25.38908
G1 X48.898 Y144.179 E25.47729
G1 X49.348 Y141.538 E25.56639
G1 X49.716 Y138.948 E25.6534
G1 X50.018 Y136.289 E25.74241
G1 X50.246 Y133.604 E25.83203
G1 X50.393 Y131.007 E25.91855
G1 X50.468 Y128.311 E26.00825
G1 X50.468 Y125.68 E26.09576
G1 X50.391 Y122.976 E26.18573
G1 X50.242 Y120.351 E26.27318
G1 X50.016 Y117.699 E26.3617
G1 X49.716 Y115.065 E26.44988
G1 X49.411 Y112.884 E26.52312
G1 X49.131 Y111.038 E26.58522
G1 X49.106 Y110.852 E26.59147
G1 X49.055 Y110.426 E26.60574
G1 X49.017 Y109.948 E26.62169
G1 X49.008 Y109.718 E26.62934
G1 X49.004 Y109.393 E26.64015
G1 X49.011 Y108.927 E26.65565
G1 X49.061 Y108.236 E26.6787
G1 X49.191 Y107.556 E26.70172
G1 X49.398 Y106.895 E26.72476
G1 X49.68 Y106.262 E26.74781
G1 X50.033 Y105.667 E26.77082
G1 X50.578 Y104.972 E26.80019
G1 X50.766 Y104.766 E26.80947
G1 X50.921 Y104.603 E26.81695
G1 X51.223 Y104.296 E26.83127
G1 X51.297 Y104.222 E26.83475
G1 X51.787 Y103.741 E26.85759
G1 X52.308 Y103.285 E26.88062
G1 X52.879 Y102.893 E26.90366
G1 X53.491 Y102.568 E26.9267
G0 F3600 X53.719 Y102.904
G1 F1800 X54.346 Y102.67 E26.94896
G1 X54.996 Y102.512 E26.97121
G1 X55.715 Y102.43 E26.99528
G1 X56 Y102.416 E27.00477
G1 X56.233 Y102.409 E27.01252
G1 X57.419 Y102.4 E27.05197
G1 X178.293 Y102.4 E31.07226
G1 X178.373 Y102.401 E31.07492
G1 X179.074 Y102.411 E31.09824
G1 X179.741 Y102.46 E31.12048
G1 X180.398 Y102.589 E31.14275
G1 X181.034 Y102.795 E31.16499
